<?xml version="1.0" encoding="UTF-8"?>
<map version="1.10" tiledversion="1.10.0" orientation="orthogonal" renderorder="right-down" width="32" height="28" tilewidth="8" tileheight="8" infinite="0" nextlayerid="9" nextobjectid="240">
 <tileset firstgid="1" source="castle_tileset.tsx"/>
 <layer id="7" name="bg0" width="32" height="28" locked="1">
  <data encoding="csv">
194,195,196,194,195,196,194,195,196,194,195,196,194,195,196,194,195,196,194,195,196,194,195,196,194,195,196,194,195,196,194,195,
195,196,194,195,196,194,195,196,194,195,196,194,195,196,194,195,196,194,195,196,194,195,196,194,195,196,194,195,196,194,195,196,
194,195,196,194,195,194,195,196,194,195,195,196,194,195,196,194,195,196,194,195,196,194,195,196,194,195,196,194,195,196,194,195,
7,7,7,7,7,2147483908,259,2147483875,259,260,7,7,7,7,7,7,7,7,7,7,7,7,2147483908,259,2147483875,259,260,7,7,7,7,7,
7,7,7,7,7,7,258,7,258,7,7,7,7,7,7,7,7,7,7,7,7,7,7,258,7,258,7,7,7,7,7,7,
7,7,7,7,7,7,226,7,226,7,7,7,7,7,7,7,7,7,7,7,7,7,7,226,7,226,7,7,7,7,7,7,
195,196,194,195,196,195,258,194,258,196,195,194,195,196,194,195,196,194,195,196,194,195,196,258,195,258,194,195,196,194,195,196,
194,195,196,194,195,194,226,196,226,195,195,196,194,195,196,194,195,196,194,195,196,194,195,226,194,226,196,194,195,196,194,195,
195,196,194,195,196,195,258,194,258,196,196,194,195,196,194,195,196,194,195,196,194,195,196,258,195,258,194,195,196,194,195,196,
7,7,7,7,7,7,226,7,226,7,7,7,7,7,7,7,7,7,7,7,7,7,7,226,7,226,7,7,7,7,7,7,
7,7,7,7,7,7,258,7,258,7,7,7,7,7,7,7,7,7,7,7,7,7,7,258,7,258,7,7,7,7,7,7,
161,161,161,161,161,161,226,161,226,161,161,161,161,161,161,161,161,161,161,161,161,161,161,226,161,226,161,161,161,161,161,161,
2147483841,2147483841,2147483841,2147483841,2147483841,2147483841,258,2147483841,258,2147483841,2147483841,2147483841,2147483841,2147483841,2147483841,2147483841,2147483841,2147483841,2147483841,2147483841,2147483841,2147483841,2147483841,258,2147483841,258,2147483841,2147483841,2147483841,2147483841,2147483841,2147483841,
193,193,193,193,193,193,226,193,226,193,193,193,193,193,193,193,193,193,193,193,193,193,193,226,193,226,193,193,193,193,193,193,
225,225,225,225,225,225,258,225,258,225,225,225,225,225,225,225,225,225,225,225,225,225,225,258,225,258,225,225,225,225,225,225,
195,196,194,195,196,195,226,194,226,196,195,194,195,196,194,195,196,194,195,196,194,195,196,226,195,226,194,195,196,194,195,196,
194,195,196,194,195,194,258,196,258,195,195,196,194,195,196,194,195,196,194,195,196,194,195,258,194,258,196,194,195,196,194,195,
195,196,194,195,196,195,226,194,226,196,195,194,195,196,194,195,196,194,195,196,194,195,196,226,195,226,194,195,196,194,195,196,
7,7,7,7,7,7,258,7,258,7,7,7,7,7,7,7,7,7,7,7,7,7,7,258,7,258,7,7,7,7,7,7,
7,7,7,7,7,7,226,7,226,7,7,7,7,7,7,7,7,7,7,7,7,7,7,226,7,226,7,7,7,7,7,7,
100,100,100,100,100,100,226,100,226,100,7,100,100,100,100,100,100,100,100,100,100,100,100,226,100,226,100,100,100,100,100,100,
100,100,100,100,100,100,258,100,258,100,7,100,100,100,100,100,100,100,100,100,100,100,100,258,100,258,100,100,100,100,100,100,
161,161,161,161,161,161,258,161,258,161,161,161,161,161,161,161,161,161,161,161,161,161,161,258,161,258,161,161,161,161,161,161,
2147483841,2147483841,2147483841,2147483841,2147483841,2147483841,226,2147483841,226,2147483841,2147483841,2147483841,2147483841,2147483841,2147483841,2147483841,2147483841,2147483841,2147483841,2147483841,2147483841,2147483841,2147483841,226,2147483841,226,2147483841,2147483841,2147483841,2147483841,2147483841,2147483841,
193,193,193,193,193,193,258,193,258,193,193,193,193,193,193,193,193,193,193,193,193,193,193,258,193,258,193,193,193,193,193,193,
225,225,225,225,225,225,226,225,226,225,225,225,225,225,225,225,225,225,225,225,225,225,225,226,225,226,225,225,225,225,225,225,
194,195,196,194,195,194,195,196,194,195,195,196,194,195,196,194,195,196,194,195,196,194,195,196,194,195,196,194,195,196,194,195,
195,196,194,195,196,195,196,194,195,196,194,195,195,196,194,195,196,194,195,196,194,195,196,194,195,196,194,195,196,194,195,196
</data>
 </layer>
 <layer id="2" name="bg1" width="32" height="28" locked="1">
  <data encoding="csv">
0,0,0,0,0,0,0,0,0,0,0,0,0,0,0,0,0,0,0,0,0,0,0,0,0,0,0,0,0,0,0,0,
0,0,0,0,0,0,0,0,0,0,0,0,0,0,0,0,0,0,0,0,0,0,0,0,0,0,0,0,0,0,0,0,
0,0,0,0,0,0,0,0,0,0,0,0,0,0,0,0,0,0,0,0,0,0,0,0,0,0,0,0,0,0,0,0,
0,0,0,0,0,0,0,0,0,0,0,0,0,0,0,0,0,0,0,0,0,0,0,0,0,0,0,0,0,0,0,0,
0,0,0,0,0,0,0,0,0,0,0,0,0,0,0,0,0,0,0,0,0,0,0,0,0,0,0,0,0,0,0,0,
0,0,0,0,0,0,0,0,0,0,0,0,0,0,0,0,0,0,0,0,0,0,0,0,0,0,0,0,0,0,0,0,
0,0,0,0,0,0,0,0,0,0,0,0,0,0,0,0,0,0,0,0,0,0,0,0,0,0,0,0,0,0,0,0,
229,230,228,229,230,0,0,0,0,0,0,0,0,0,0,0,0,0,0,0,0,0,0,0,0,0,0,228,229,230,228,229,
228,229,230,228,229,230,0,0,0,0,0,0,0,0,0,0,0,0,0,0,0,0,0,0,0,0,228,229,230,228,229,230,
0,0,0,0,0,0,0,0,0,0,0,0,0,0,0,0,0,0,0,0,0,0,0,0,0,0,0,0,0,0,0,0,
0,0,0,0,0,0,0,0,0,0,0,0,0,0,0,0,0,0,0,0,0,0,0,0,0,0,0,0,0,0,0,0,
0,0,0,0,0,0,0,0,0,0,0,0,0,0,0,0,0,0,0,0,0,0,0,0,0,0,0,0,0,0,0,0,
0,0,0,0,0,0,0,0,0,0,0,0,0,0,0,0,0,0,0,0,0,0,0,0,0,0,0,0,0,0,0,0,
0,0,0,0,0,0,0,0,0,0,0,0,0,0,0,0,0,0,0,0,0,0,0,0,0,0,0,0,0,0,0,0,
0,0,0,0,0,0,0,0,0,0,0,0,0,0,0,0,0,0,0,0,0,0,0,0,0,0,0,0,0,0,0,0,
230,228,229,230,0,0,0,0,0,0,0,0,0,0,0,0,0,0,0,0,0,0,0,0,0,0,228,229,230,228,229,230,
229,230,228,229,230,228,229,230,0,0,0,0,0,0,0,0,0,0,0,0,0,0,0,0,228,229,230,228,229,230,228,229,
228,229,230,228,229,230,0,0,0,0,0,0,0,0,0,0,0,0,0,0,0,0,0,228,229,230,228,229,230,228,229,230,
0,0,0,0,0,0,0,0,0,0,0,0,0,0,0,0,0,0,0,0,0,0,0,0,0,0,0,0,0,0,0,0,
0,0,0,0,0,0,0,0,0,0,0,0,0,0,0,0,0,0,0,0,0,0,0,0,0,0,0,0,0,0,0,0,
0,0,0,0,0,0,0,0,0,0,0,0,0,0,0,0,0,0,0,0,0,0,0,0,0,0,0,0,0,0,0,0,
0,0,0,0,0,0,0,0,0,0,0,0,0,0,0,0,0,0,0,0,0,0,0,0,0,0,0,0,0,0,0,0,
0,0,0,0,0,0,0,0,0,0,0,0,0,0,0,0,0,0,0,0,0,0,0,0,0,0,0,0,0,0,0,0,
0,0,0,0,0,0,0,0,0,0,0,0,0,0,0,0,0,0,0,0,0,0,0,0,0,0,0,0,0,0,0,0,
0,0,0,0,0,0,0,0,0,0,0,0,0,0,0,0,0,0,0,0,0,0,0,0,0,0,0,0,0,0,0,0,
0,0,0,0,0,0,0,0,0,0,0,0,0,0,0,0,0,0,0,0,0,0,0,0,0,0,0,0,0,0,0,0,
229,229,229,229,229,229,229,229,229,230,0,0,0,228,229,229,229,229,230,0,0,0,228,229,229,229,229,229,229,229,229,229,
0,0,0,0,0,0,0,0,0,0,0,0,0,0,0,0,0,0,0,0,0,0,0,0,0,0,0,0,0,0,0,0
</data>
 </layer>
 <objectgroup id="8" name="sprites">
  <object id="1" gid="2147484516" x="72" y="208" width="8" height="8"/>
  <object id="2" gid="2147484517" x="64" y="208" width="8" height="8"/>
  <object id="3" gid="2147484518" x="56" y="208" width="8" height="8"/>
  <object id="4" gid="2147484486" x="56" y="200" width="8" height="8"/>
  <object id="5" gid="2147484485" x="64" y="200" width="8" height="8"/>
  <object id="6" gid="2147484484" x="72" y="200" width="8" height="8"/>
  <object id="7" gid="2147484452" x="72" y="192" width="8" height="8"/>
  <object id="8" gid="2147484453" x="64" y="192" width="8" height="8"/>
  <object id="9" gid="2147484454" x="56" y="192" width="8" height="8"/>
  <object id="10" gid="2147484420" x="72" y="184" width="8" height="8"/>
  <object id="11" gid="2147484421" x="64" y="184" width="8" height="8"/>
  <object id="12" gid="2147484422" x="56" y="184" width="8" height="8"/>
  <object id="13" gid="2147484136" x="216" y="120" width="8" height="8"/>
  <object id="14" gid="2147484104" x="216" y="112" width="8" height="8"/>
  <object id="15" gid="454" x="224" y="112" width="8" height="8"/>
  <object id="16" gid="457" x="224" y="112" width="8" height="8"/>
  <object id="17" gid="2147484104" x="216" y="112" width="8" height="8"/>
  <object id="18" gid="455" x="208" y="112" width="8" height="8"/>
  <object id="19" gid="2147484072" x="216" y="104" width="8" height="8"/>
  <object id="20" gid="2147484073" x="208" y="104" width="8" height="8"/>
  <object id="21" gid="2147484040" x="216" y="96" width="8" height="8"/>
  <object id="23" gid="2147484041" x="208" y="96" width="8" height="8"/>
  <object id="24" gid="2147484039" x="224" y="96" width="8" height="8"/>
  <object id="25" gid="2147484105" x="208" y="112" width="8" height="8"/>
  <object id="37" gid="237" x="128" y="64" width="8" height="8"/>
  <object id="38" gid="238" x="136" y="64" width="8" height="8"/>
  <object id="39" gid="205" x="128" y="56" width="8" height="8"/>
  <object id="40" gid="206" x="136" y="56" width="8" height="8"/>
  <object id="46" gid="110" x="128" y="32" width="8" height="8"/>
  <object id="59" gid="14" x="128" y="8" width="8" height="8"/>
  <object id="62" gid="2147483885" x="104" y="120" width="8" height="8"/>
  <object id="63" gid="2147483886" x="96" y="120" width="8" height="8"/>
  <object id="64" gid="2147483853" x="104" y="112" width="8" height="8"/>
  <object id="65" gid="2147483854" x="96" y="112" width="8" height="8"/>
  <object id="71" gid="2147483758" x="104" y="88" width="8" height="8"/>
  <object id="84" gid="2147483662" x="104" y="64" width="8" height="8"/>
  <object id="103" gid="144" x="24" y="136" width="8" height="8"/>
  <object id="105" gid="176" x="24" y="144" width="8" height="8"/>
  <object id="136" gid="294" x="208" y="96" width="8" height="8"/>
  <object id="172" gid="263" x="112" y="208" width="8" height="8"/>
  <object id="173" gid="264" x="120" y="208" width="8" height="8"/>
  <object id="174" gid="265" x="128" y="208" width="8" height="8"/>
  <object id="175" gid="266" x="136" y="208" width="8" height="8"/>
  <object id="176" gid="267" x="144" y="208" width="8" height="8"/>
  <object id="177" gid="235" x="144" y="200" width="8" height="8"/>
  <object id="178" gid="234" x="136" y="200" width="8" height="8"/>
  <object id="179" gid="233" x="128" y="200" width="8" height="8"/>
  <object id="180" gid="232" x="120" y="200" width="8" height="8"/>
  <object id="181" gid="231" x="112" y="200" width="8" height="8"/>
  <object id="182" gid="199" x="112" y="192" width="8" height="8"/>
  <object id="183" gid="200" x="120" y="192" width="8" height="8"/>
  <object id="184" gid="201" x="128" y="192" width="8" height="8"/>
  <object id="185" gid="202" x="136" y="192" width="8" height="8"/>
  <object id="186" gid="203" x="144" y="192" width="8" height="8"/>
  <object id="187" gid="888" x="32" y="208" width="8" height="8"/>
  <object id="188" gid="889" x="40" y="208" width="8" height="8"/>
  <object id="189" gid="887" x="24" y="208" width="8" height="8"/>
  <object id="190" gid="856" x="32" y="200" width="8" height="8"/>
  <object id="191" gid="855" x="24" y="200" width="8" height="8"/>
  <object id="192" gid="824" x="32" y="192" width="8" height="8"/>
  <object id="193" gid="823" x="24" y="192" width="8" height="8"/>
  <object id="194" gid="791" x="24" y="184" width="8" height="8"/>
  <object id="195" gid="792" x="32" y="184" width="8" height="8"/>
  <object id="197" gid="793" x="40" y="184" width="8" height="8"/>
  <object id="198" gid="825" x="40" y="192" width="8" height="8"/>
  <object id="199" gid="857" x="40" y="200" width="8" height="8"/>
  <object id="201" gid="858" x="48" y="200" width="8" height="8"/>
  <object id="202" gid="826" x="48" y="192" width="8" height="8"/>
  <object id="203" gid="253" x="8" y="120" width="8" height="8"/>
  <object id="204" gid="254" x="16" y="120" width="8" height="8"/>
  <object id="205" gid="221" x="8" y="112" width="8" height="8"/>
  <object id="206" gid="222" x="16" y="112" width="8" height="8"/>
  <object id="207" gid="189" x="8" y="104" width="8" height="8"/>
  <object id="208" gid="190" x="16" y="104" width="8" height="8"/>
  <object id="209" gid="223" x="24" y="112" width="8" height="8"/>
  <object id="210" gid="191" x="24" y="104" width="8" height="8"/>
  <object id="211" gid="158" x="16" y="96" width="8" height="8"/>
  <object id="212" gid="157" x="8" y="96" width="8" height="8"/>
  <object id="215" gid="2147483899" x="216" y="208" width="8" height="8"/>
  <object id="216" gid="2147483900" x="208" y="208" width="8" height="8"/>
  <object id="217" gid="2147483898" x="224" y="208" width="8" height="8"/>
  <object id="218" gid="2147483867" x="216" y="200" width="8" height="8"/>
  <object id="219" gid="2147483868" x="208" y="200" width="8" height="8"/>
  <object id="220" gid="2147483866" x="224" y="200" width="8" height="8"/>
  <object id="221" gid="2147483835" x="216" y="192" width="8" height="8"/>
  <object id="222" gid="2147483834" x="224" y="192" width="8" height="8"/>
  <object id="223" gid="2147483836" x="208" y="192" width="8" height="8"/>
  <object id="224" gid="2147483803" x="216" y="184" width="8" height="8"/>
  <object id="226" gid="2147483802" x="224" y="184" width="8" height="8"/>
  <object id="227" gid="503" x="24" y="56" width="8" height="8"/>
  <object id="228" gid="502" x="16" y="56" width="8" height="8"/>
  <object id="229" gid="501" x="32" y="56" width="8" height="8"/>
  <object id="230" gid="468" x="24" y="48" width="8" height="8"/>
  <object id="231" gid="467" x="16" y="48" width="8" height="8"/>
  <object id="232" gid="469" x="32" y="48" width="8" height="8"/>
  <object id="233" gid="436" x="24" y="40" width="8" height="8"/>
  <object id="234" gid="435" x="16" y="40" width="8" height="8"/>
  <object id="235" gid="437" x="32" y="40" width="8" height="8"/>
  <object id="236" gid="405" x="32" y="32" width="8" height="8"/>
  <object id="237" gid="404" x="24" y="32" width="8" height="8"/>
  <object id="238" gid="403" x="16" y="32" width="8" height="8"/>
  <object id="239" gid="152" x="-16" y="304" width="8" height="8"/>
 </objectgroup>
</map>
