<?xml version="1.0" encoding="UTF-8"?>
<map version="1.10" tiledversion="1.10.0" orientation="orthogonal" renderorder="right-down" width="32" height="28" tilewidth="8" tileheight="8" infinite="0" nextlayerid="9" nextobjectid="87">
 <tileset firstgid="1" source="castle_tileset.tsx"/>
 <layer id="7" name="bg0" width="32" height="28">
  <data encoding="csv">
34,35,34,35,34,35,36,100,100,100,100,100,100,100,100,100,100,100,100,100,100,100,100,100,100,100,100,100,100,100,100,100,
66,67,66,67,66,67,100,100,100,100,100,100,100,100,100,100,100,100,100,100,100,100,100,100,100,100,100,100,100,100,100,100,
100,100,34,35,34,35,34,35,68,100,100,100,100,100,100,100,100,100,100,100,100,100,100,100,100,100,100,100,100,100,100,100,
100,2,66,67,66,67,66,67,100,100,100,100,100,100,100,100,100,100,100,100,100,100,100,100,100,100,100,100,100,100,100,100,
100,100,100,1,34,35,34,35,34,35,36,100,100,100,100,100,100,100,3,2,3,2,3,100,100,100,100,129,131,163,163,130,
100,100,100,1,66,67,66,67,66,67,4,100,100,100,100,100,1,34,35,34,35,34,35,100,100,100,100,100,100,100,100,100,
100,100,100,100,100,65,34,35,36,99,100,100,100,100,100,100,1,66,67,66,67,66,67,2,3,100,100,100,100,100,100,100,
100,100,100,100,100,97,66,67,68,100,100,100,100,100,100,100,129,162,130,132,35,34,35,34,35,36,100,100,100,100,100,100,
100,100,100,100,100,100,100,99,100,100,100,100,100,100,100,100,100,100,2,66,67,66,67,66,67,100,100,100,100,100,100,100,
100,100,100,100,100,100,100,100,100,100,100,100,100,100,100,100,100,100,100,100,100,34,35,34,35,34,35,68,100,100,100,100,
100,100,100,100,100,100,100,100,100,100,100,100,100,100,100,100,100,100,100,100,2,66,67,66,67,66,67,100,100,100,100,100,
130,130,130,131,130,163,130,162,130,132,100,3,2,3,100,100,100,100,100,100,100,100,1,34,35,34,35,34,35,36,100,100,
2,3,100,100,100,100,100,100,100,1,34,35,34,35,2,3,100,100,100,100,100,100,1,66,67,66,67,66,67,4,100,100,
34,35,100,100,100,100,100,100,100,100,66,67,66,67,34,35,100,100,100,100,100,100,100,100,65,34,35,36,99,100,100,100,
66,67,2,3,100,100,100,100,100,100,100,33,34,35,66,67,68,100,100,100,100,100,100,100,97,66,67,68,100,100,100,100,
34,35,34,35,36,100,100,100,100,100,100,100,66,67,100,99,100,100,100,100,100,100,100,100,100,100,99,100,100,100,100,100,
66,67,66,67,100,100,100,100,100,100,100,100,100,99,100,100,100,100,100,129,130,163,130,131,163,163,162,163,131,163,132,100,
34,35,34,35,34,35,68,100,100,100,100,100,100,100,100,100,100,100,100,100,100,100,100,100,100,100,100,100,100,100,100,100,
66,67,66,67,66,67,100,100,100,100,100,100,100,100,100,100,100,100,100,100,100,100,100,100,100,100,100,100,100,100,100,100,
100,1,34,35,34,35,34,35,36,100,100,100,100,100,100,100,100,100,3,2,3,2,3,100,100,100,100,100,100,100,100,100,
100,1,66,67,66,67,66,67,4,100,100,100,100,100,100,100,1,34,35,34,35,34,35,100,100,100,100,100,100,100,100,100,
100,100,100,65,34,35,36,99,100,100,129,130,131,132,100,100,1,66,67,66,67,66,67,2,3,100,100,100,100,100,100,100,
100,100,100,97,66,67,68,100,100,100,100,100,100,100,100,100,100,100,1,34,35,34,35,34,35,36,100,100,100,100,100,100,
100,100,100,100,100,99,100,100,100,100,100,100,100,100,100,100,100,100,2,66,67,66,67,66,129,131,162,163,132,100,100,100,
100,100,100,100,100,100,100,100,100,100,100,100,100,100,100,100,100,100,100,100,100,34,35,34,35,34,35,68,100,100,100,100,
100,129,162,163,131,163,130,163,132,100,100,100,100,100,100,100,100,100,100,100,2,66,67,66,67,66,67,100,100,100,100,100,
100,100,100,100,100,100,100,100,100,100,100,100,100,100,100,100,100,100,100,100,100,100,1,34,35,34,35,34,35,36,100,100,
100,100,100,100,100,100,100,100,100,100,100,100,100,100,129,130,131,132,100,100,100,100,1,66,67,66,67,66,67,4,100,100
</data>
 </layer>
 <layer id="2" name="bg1" width="32" height="28" locked="1">
  <data encoding="csv">
0,0,0,0,0,0,0,0,0,0,0,0,0,0,0,0,0,0,0,0,0,0,0,0,0,0,0,0,0,0,0,0,
0,0,0,0,0,0,0,0,0,0,0,0,0,0,0,0,0,0,0,0,0,0,0,0,0,0,0,0,0,0,0,0,
0,0,0,0,0,0,0,0,0,0,0,0,0,0,0,0,0,0,0,0,0,0,0,0,0,0,0,0,0,0,0,0,
0,0,0,0,0,0,0,0,0,0,0,0,0,0,0,0,0,0,0,0,0,0,0,0,0,0,0,0,0,0,0,0,
0,0,0,0,0,0,0,0,0,0,0,0,0,0,0,0,0,0,0,0,0,0,0,0,0,0,0,0,0,0,0,0,
0,0,0,0,0,0,0,0,0,0,0,0,0,0,0,0,0,0,0,0,0,0,0,0,0,0,0,0,0,0,0,0,
0,0,0,0,0,0,0,0,0,0,0,0,0,0,0,0,0,0,0,0,0,0,0,0,0,0,0,0,0,0,0,0,
0,0,0,0,0,0,0,0,0,0,0,0,0,0,0,0,0,0,0,0,0,0,0,0,0,0,0,0,0,0,0,0,
0,0,0,0,0,0,0,0,0,0,0,0,0,0,0,0,0,0,0,0,0,0,0,0,0,0,0,0,0,0,0,0,
0,0,0,0,0,0,0,0,0,0,0,0,0,0,0,0,0,0,0,0,0,0,0,0,0,0,0,0,0,0,0,0,
0,0,0,0,0,0,0,0,0,0,0,0,0,0,0,0,0,0,0,0,0,0,0,0,0,0,0,0,0,0,0,0,
0,0,0,0,0,0,0,0,0,0,0,0,0,0,0,0,0,0,0,0,0,0,0,0,0,0,0,0,0,0,0,0,
0,0,0,0,0,0,0,0,0,0,0,0,0,0,0,0,0,0,0,0,0,0,0,0,0,0,0,0,0,0,0,0,
0,0,0,0,0,0,0,0,0,0,0,0,0,0,0,0,0,0,0,0,0,0,0,0,0,0,0,0,0,0,0,0,
0,0,0,0,0,0,0,0,0,0,0,0,0,0,0,0,0,0,0,0,0,0,0,0,0,0,0,0,0,0,0,0,
0,0,0,0,0,0,0,0,0,0,0,0,0,0,0,0,0,0,0,0,0,0,0,0,0,0,0,0,0,0,0,0,
0,0,0,0,0,0,0,0,0,0,0,0,0,0,0,0,0,0,0,0,0,0,0,0,0,0,0,0,0,0,0,0,
0,0,0,0,0,0,0,0,0,0,0,0,0,0,0,0,0,0,0,0,0,0,0,0,0,0,0,0,0,0,0,0,
0,0,0,0,0,0,0,0,0,0,0,0,0,0,0,0,0,0,0,0,0,0,0,0,0,0,0,0,0,0,0,0,
0,0,0,0,0,0,0,0,0,0,0,0,0,0,0,0,0,0,0,0,0,0,0,0,0,0,0,0,0,0,0,0,
0,0,0,0,0,0,0,0,0,0,0,0,0,0,0,0,0,0,0,0,0,0,0,0,0,0,0,0,0,0,0,0,
0,0,0,0,0,0,0,0,0,0,0,0,0,0,0,0,0,0,0,0,0,0,0,0,0,0,0,0,0,0,0,0,
0,0,0,0,0,0,0,0,0,0,0,0,0,0,0,0,0,0,0,0,0,0,0,0,0,0,0,0,0,0,0,0,
0,0,0,0,0,0,0,0,0,0,0,0,0,0,0,0,0,0,0,0,0,0,0,0,0,0,0,0,0,0,0,0,
0,0,0,0,0,0,0,0,0,0,0,0,0,0,0,0,0,0,0,0,0,0,0,0,0,0,0,0,0,0,0,0,
0,0,0,0,0,0,0,0,0,0,0,0,0,0,0,0,0,0,0,0,0,0,0,0,0,0,0,0,0,0,0,0,
0,0,0,0,0,0,0,0,0,0,0,0,0,0,0,0,0,0,0,0,0,0,0,0,0,0,0,0,0,0,0,0,
0,0,0,0,0,0,0,0,0,0,0,0,0,0,0,0,0,0,0,0,0,0,0,0,0,0,0,0,0,0,0,0
</data>
 </layer>
 <objectgroup id="8" name="sprites">
  <object id="1" gid="868" x="16" y="88" width="8" height="8"/>
  <object id="2" gid="869" x="24" y="88" width="8" height="8"/>
  <object id="3" gid="870" x="32" y="88" width="8" height="8"/>
  <object id="4" gid="838" x="32" y="80" width="8" height="8"/>
  <object id="5" gid="837" x="24" y="80" width="8" height="8"/>
  <object id="6" gid="836" x="16" y="80" width="8" height="8"/>
  <object id="7" gid="804" x="16" y="72" width="8" height="8"/>
  <object id="8" gid="805" x="24" y="72" width="8" height="8"/>
  <object id="9" gid="806" x="32" y="72" width="8" height="8"/>
  <object id="10" gid="772" x="16" y="64" width="8" height="8"/>
  <object id="11" gid="773" x="24" y="64" width="8" height="8"/>
  <object id="12" gid="774" x="32" y="64" width="8" height="8"/>
  <object id="13" gid="2147484136" x="120" y="216" width="8" height="8"/>
  <object id="14" gid="2147484104" x="120" y="208" width="8" height="8"/>
  <object id="15" gid="454" x="128" y="208" width="8" height="8"/>
  <object id="16" gid="457" x="128" y="208" width="8" height="8"/>
  <object id="17" gid="2147484104" x="120" y="208" width="8" height="8"/>
  <object id="18" gid="455" x="112" y="208" width="8" height="8"/>
  <object id="19" gid="2147484072" x="120" y="200" width="8" height="8"/>
  <object id="20" gid="2147484073" x="112" y="200" width="8" height="8"/>
  <object id="21" gid="2147484040" x="120" y="192" width="8" height="8"/>
  <object id="23" gid="2147484041" x="112" y="192" width="8" height="8"/>
  <object id="24" gid="2147484039" x="128" y="192" width="8" height="8"/>
  <object id="25" gid="2147484105" x="112" y="208" width="8" height="8"/>
  <object id="37" gid="237" x="128" y="64" width="8" height="8"/>
  <object id="38" gid="238" x="136" y="64" width="8" height="8"/>
  <object id="39" gid="205" x="128" y="56" width="8" height="8"/>
  <object id="40" gid="206" x="136" y="56" width="8" height="8"/>
  <object id="46" gid="110" x="128" y="32" width="8" height="8"/>
  <object id="51" gid="78" x="128" y="24" width="8" height="8"/>
  <object id="54" gid="46" x="128" y="16" width="8" height="8"/>
  <object id="59" gid="14" x="128" y="8" width="8" height="8"/>
  <object id="62" gid="2147483885" x="104" y="120" width="8" height="8"/>
  <object id="63" gid="2147483886" x="96" y="120" width="8" height="8"/>
  <object id="64" gid="2147483853" x="104" y="112" width="8" height="8"/>
  <object id="65" gid="2147483854" x="96" y="112" width="8" height="8"/>
  <object id="71" gid="2147483758" x="104" y="88" width="8" height="8"/>
  <object id="76" gid="2147483726" x="104" y="80" width="8" height="8"/>
  <object id="79" gid="2147483694" x="104" y="72" width="8" height="8"/>
  <object id="84" gid="2147483662" x="104" y="64" width="8" height="8"/>
 </objectgroup>
</map>
