<?xml version="1.0" encoding="UTF-8"?>
<map version="1.10" tiledversion="1.10.0" orientation="orthogonal" renderorder="right-down" width="32" height="28" tilewidth="8" tileheight="8" infinite="0" nextlayerid="9" nextobjectid="172">
 <tileset firstgid="1" source="castle_tileset.tsx"/>
 <layer id="7" name="bg0" width="32" height="28" locked="1">
  <data encoding="csv">
5,6,5,6,5,6,5,6,5,6,5,6,5,6,5,6,5,6,5,6,37,38,5,6,5,6,5,6,5,6,5,6,
6,5,6,5,6,5,6,5,6,5,6,5,6,5,6,5,6,5,6,5,6,5,6,5,6,5,6,5,6,5,6,5,
5,6,5,6,37,38,5,6,5,6,5,6,37,38,5,6,5,6,5,6,5,6,5,6,5,6,5,6,5,37,38,6,
6,5,6,5,6,5,6,5,6,5,6,5,6,5,6,5,6,5,6,37,38,5,6,5,6,37,38,5,6,5,6,5,
5,6,5,6,5,6,5,6,5,6,7,7,5,6,5,6,5,6,5,6,5,6,5,6,5,6,5,6,5,6,5,6,
6,5,6,5,6,37,38,5,6,5,6,5,6,5,6,5,6,5,6,5,6,7,7,5,6,5,6,5,6,37,38,5,
5,6,5,6,5,6,5,6,5,6,5,6,5,6,5,6,5,6,37,38,5,6,5,6,5,6,5,6,5,6,5,6,
6,5,6,5,6,5,6,5,6,5,6,5,6,5,6,5,6,5,6,5,104,5,6,5,6,5,6,5,6,5,6,5,
5,6,5,6,5,6,5,6,5,6,37,38,5,6,5,6,5,6,5,6,5,6,37,38,5,6,5,6,5,6,5,6,
6,37,38,5,6,5,6,5,6,5,6,5,103,5,6,5,6,5,6,5,6,5,6,5,6,5,6,5,6,5,6,37,
5,6,5,6,5,6,5,6,5,6,5,6,5,6,5,6,5,6,5,6,5,6,37,38,5,6,5,6,5,6,5,6,
6,5,6,5,6,5,6,5,6,7,7,5,6,37,38,5,6,5,6,5,6,5,6,5,6,5,6,37,38,5,6,5,
5,6,5,6,5,6,5,6,5,6,5,6,5,6,5,6,5,6,37,38,5,6,5,6,7,7,5,6,5,6,5,6,
6,5,6,5,6,37,38,5,6,5,6,5,6,5,6,5,6,7,7,5,6,5,6,5,6,5,6,5,6,5,6,5,
5,6,5,6,5,6,5,6,5,6,5,6,37,38,5,6,5,6,5,6,5,6,5,6,5,6,37,38,5,6,5,6,
6,37,38,5,6,5,6,5,6,5,6,5,6,5,6,5,6,5,6,5,6,37,38,5,6,5,6,5,6,5,6,5,
5,6,7,7,5,105,5,6,5,6,5,6,5,6,5,6,37,38,5,6,5,6,5,6,5,6,5,6,5,6,5,6,
6,5,6,5,6,5,6,5,6,37,38,5,6,5,6,5,6,5,6,5,6,5,6,5,6,37,38,5,6,5,6,5,
5,6,5,6,5,6,5,6,5,6,5,6,5,6,5,6,5,6,5,6,5,6,5,6,5,6,5,6,5,6,5,6,
6,5,6,37,38,5,6,5,6,5,6,5,6,5,6,5,6,37,38,5,6,5,6,7,7,5,6,5,6,5,6,37,
5,6,5,6,5,6,5,6,5,6,5,6,37,38,5,6,5,6,5,6,5,6,5,6,5,6,5,6,5,6,5,6,
6,5,6,5,6,5,6,5,6,5,6,5,6,5,6,5,6,5,6,5,37,38,6,5,6,5,37,38,6,5,6,5,
5,6,5,6,5,6,5,6,5,6,5,6,5,6,5,6,5,6,5,6,5,6,5,6,5,6,5,6,5,6,5,6,
6,5,6,5,6,5,6,5,6,7,7,5,6,5,6,5,6,5,6,5,6,5,6,5,6,5,6,5,6,5,6,5,
5,6,5,6,5,6,5,6,5,6,5,6,37,38,5,6,5,6,37,38,5,6,5,6,5,6,5,6,5,6,5,6,
6,5,6,5,6,5,6,37,38,5,6,5,6,5,6,5,6,5,6,5,6,5,6,5,6,5,6,37,38,5,6,5,
5,6,5,6,5,6,5,6,5,6,5,6,5,6,5,6,5,6,5,6,5,6,5,6,5,6,5,6,5,6,5,6,
6,5,37,38,6,5,6,5,6,5,6,5,6,5,6,5,6,5,6,5,6,37,38,5,6,5,6,5,6,7,7,5
</data>
 </layer>
 <layer id="2" name="bg1" width="32" height="28">
  <data encoding="csv">
0,0,0,0,0,0,0,0,0,0,0,0,0,0,0,0,0,0,0,0,0,0,0,0,0,0,0,0,0,0,0,0,
0,0,0,0,0,0,0,0,0,0,0,0,0,0,0,0,0,0,0,0,0,0,0,0,0,0,0,0,0,0,0,0,
0,0,0,0,0,0,0,0,0,0,0,0,0,0,0,0,0,0,0,0,0,0,137,2147483785,0,0,0,0,0,0,0,0,
0,0,0,0,0,0,0,0,0,0,0,0,0,0,0,0,0,0,0,0,0,0,169,2147483817,0,0,0,0,0,0,0,0,
11,12,2147483660,2147483659,0,0,0,0,0,326,0,0,0,0,0,0,0,0,0,0,0,0,201,2147483849,0,0,0,0,0,0,0,0,
43,44,2147483692,2147483691,0,0,0,0,0,0,0,0,0,0,0,0,0,0,0,0,0,0,0,0,0,0,0,0,0,0,0,0,
75,76,2147483724,2147483723,0,0,0,0,0,0,0,0,0,0,0,0,0,0,0,0,0,0,0,0,0,0,0,0,0,0,0,0,
107,108,2147483756,2147483755,0,0,0,0,0,0,0,0,0,0,0,0,0,0,0,0,0,0,0,0,0,0,0,0,0,0,0,0,
40,40,40,41,0,0,0,0,0,0,0,0,0,0,0,0,0,0,0,0,0,0,0,0,0,0,0,0,0,0,0,0,
71,71,72,73,0,0,0,0,0,0,0,0,0,0,0,0,0,0,0,0,0,0,0,0,0,0,0,0,0,0,0,0,
0,0,0,0,0,0,0,0,0,0,0,0,0,0,0,0,0,0,0,0,0,0,0,0,0,69,70,69,70,69,70,0,
0,0,0,0,0,0,0,0,0,0,0,0,0,0,0,0,0,0,0,0,0,0,0,0,0,101,102,101,102,101,102,0,
0,0,0,0,0,0,0,0,0,0,0,0,0,0,0,0,0,0,0,0,0,0,0,0,0,0,0,0,0,0,0,0,
0,0,0,0,0,0,0,0,39,40,41,8,8,8,8,39,40,40,40,41,0,0,0,0,0,0,0,0,0,0,0,0,
140,0,0,0,0,0,0,0,71,72,73,0,0,0,0,71,72,72,72,73,0,0,0,0,0,0,0,0,0,0,0,0,
172,0,0,0,0,0,0,0,0,0,0,0,0,0,0,0,0,0,0,0,0,0,0,11,12,2147483660,2147483659,0,0,0,0,0,
69,140,0,0,0,0,0,0,0,0,0,0,0,0,0,0,0,0,0,0,0,0,0,43,45,2147483693,2147483691,0,0,0,0,0,
101,172,0,0,0,0,0,0,0,0,0,0,0,0,0,0,0,0,0,0,69,70,0,75,77,2147483725,2147483723,0,0,0,0,0,
0,0,0,0,0,0,0,0,0,0,0,0,0,0,0,0,0,0,0,0,101,102,0,107,109,2147483725,2147483755,0,0,0,0,0,
0,0,0,0,0,0,0,0,0,0,0,0,0,0,0,0,0,0,0,0,0,0,0,69,70,69,70,0,0,0,0,0,
0,0,0,0,0,0,0,0,0,0,0,0,0,0,0,0,0,0,0,0,0,0,0,101,102,101,102,0,0,0,0,0,
0,0,0,0,0,0,0,0,0,0,0,0,0,0,0,0,0,0,0,0,0,0,0,0,0,0,0,0,0,0,0,0,
0,0,0,69,70,69,70,69,70,0,0,0,0,0,0,0,0,0,0,0,0,0,0,0,0,0,0,0,0,0,0,0,
0,0,0,101,102,101,102,101,102,0,0,0,0,0,0,0,0,0,0,0,0,0,0,0,0,0,0,0,0,0,0,0,
0,0,0,0,0,0,0,0,0,0,0,0,0,0,0,0,0,0,0,0,0,0,0,0,0,0,0,0,0,0,0,0,
0,0,0,0,0,0,0,0,0,0,0,0,0,0,0,0,0,0,0,0,0,0,0,0,0,0,0,0,0,0,0,0,
133,133,133,133,133,133,133,133,133,133,133,133,133,133,133,133,133,133,133,133,133,133,133,133,133,133,133,133,133,133,133,133,
165,165,165,165,165,165,165,165,165,165,165,165,165,165,165,165,165,165,165,165,165,165,165,165,165,165,165,165,165,165,165,165
</data>
 </layer>
 <objectgroup id="8" name="sprites">
  <object id="1" gid="868" x="38" y="176" width="8" height="8"/>
  <object id="2" gid="869" x="46" y="176" width="8" height="8"/>
  <object id="3" gid="870" x="54" y="176" width="8" height="8"/>
  <object id="4" gid="838" x="54" y="168" width="8" height="8"/>
  <object id="5" gid="837" x="46" y="168" width="8" height="8"/>
  <object id="6" gid="836" x="38" y="168" width="8" height="8"/>
  <object id="7" gid="804" x="38" y="160" width="8" height="8"/>
  <object id="8" gid="805" x="46" y="160" width="8" height="8"/>
  <object id="9" gid="806" x="54" y="160" width="8" height="8"/>
  <object id="10" gid="772" x="38" y="152" width="8" height="8"/>
  <object id="11" gid="773" x="46" y="152" width="8" height="8"/>
  <object id="12" gid="774" x="54" y="152" width="8" height="8"/>
  <object id="13" gid="2147484136" x="216" y="80" width="8" height="8"/>
  <object id="14" gid="2147484104" x="216" y="72" width="8" height="8"/>
  <object id="15" gid="454" x="224" y="72" width="8" height="8"/>
  <object id="16" gid="457" x="224" y="72" width="8" height="8"/>
  <object id="17" gid="2147484104" x="216" y="72" width="8" height="8"/>
  <object id="18" gid="455" x="208" y="72" width="8" height="8"/>
  <object id="19" gid="2147484072" x="216" y="64" width="8" height="8"/>
  <object id="20" gid="2147484073" x="208" y="64" width="8" height="8"/>
  <object id="21" gid="2147484040" x="216" y="56" width="8" height="8"/>
  <object id="23" gid="2147484041" x="208" y="56" width="8" height="8"/>
  <object id="24" gid="2147484039" x="224" y="56" width="8" height="8"/>
  <object id="25" gid="2147484105" x="208" y="72" width="8" height="8"/>
  <object id="37" gid="237" x="128" y="64" width="8" height="8"/>
  <object id="38" gid="238" x="136" y="64" width="8" height="8"/>
  <object id="39" gid="205" x="128" y="56" width="8" height="8"/>
  <object id="40" gid="206" x="136" y="56" width="8" height="8"/>
  <object id="46" gid="110" x="128" y="32" width="8" height="8"/>
  <object id="59" gid="14" x="128" y="8" width="8" height="8"/>
  <object id="62" gid="2147483885" x="104" y="120" width="8" height="8"/>
  <object id="63" gid="2147483886" x="96" y="120" width="8" height="8"/>
  <object id="64" gid="2147483853" x="104" y="112" width="8" height="8"/>
  <object id="65" gid="2147483854" x="96" y="112" width="8" height="8"/>
  <object id="71" gid="2147483758" x="104" y="88" width="8" height="8"/>
  <object id="84" gid="2147483662" x="104" y="64" width="8" height="8"/>
  <object id="87" gid="71" x="124" y="56" width="8" height="8"/>
  <object id="88" gid="166" x="126" y="60" width="8" height="8"/>
  <object id="89" gid="166" x="130" y="64" width="8" height="8"/>
  <object id="90" gid="166" x="134" y="68" width="8" height="8"/>
  <object id="91" gid="166" x="138" y="72" width="8" height="8"/>
  <object id="92" gid="166" x="140" y="76" width="8" height="8"/>
  <object id="93" gid="135" x="140" y="78" width="8" height="8"/>
  <object id="94" gid="136" x="148" y="78" width="8" height="8"/>
  <object id="95" gid="168" x="148" y="86" width="8" height="8"/>
  <object id="96" gid="167" x="140" y="86" width="8" height="8"/>
  <object id="103" gid="144" x="24" y="136" width="8" height="8"/>
  <object id="105" gid="176" x="24" y="144" width="8" height="8"/>
  <object id="108" gid="141" x="8" y="120" width="8" height="8"/>
  <object id="109" gid="141" x="16" y="120" width="8" height="8"/>
  <object id="110" gid="141" x="24" y="120" width="8" height="8"/>
  <object id="111" gid="141" x="32" y="120" width="8" height="8"/>
  <object id="112" gid="141" x="16" y="136" width="8" height="8"/>
  <object id="114" gid="173" x="8" y="128" width="8" height="8"/>
  <object id="115" gid="173" x="16" y="128" width="8" height="8"/>
  <object id="116" gid="173" x="24" y="128" width="8" height="8"/>
  <object id="117" gid="173" x="32" y="128" width="8" height="8"/>
  <object id="118" gid="142" x="40" y="120" width="8" height="8"/>
  <object id="119" gid="143" x="48" y="120" width="8" height="8"/>
  <object id="120" gid="175" x="48" y="128" width="8" height="8"/>
  <object id="121" gid="174" x="40" y="128" width="8" height="8"/>
  <object id="122" gid="142" x="24" y="136" width="8" height="8"/>
  <object id="123" gid="143" x="32" y="136" width="8" height="8"/>
  <object id="124" gid="175" x="32" y="144" width="8" height="8"/>
  <object id="125" gid="174" x="24" y="144" width="8" height="8"/>
  <object id="126" gid="173" x="16" y="144" width="8" height="8"/>
  <object id="136" gid="294" x="144" y="96" width="8" height="8"/>
  <object id="137" gid="291" x="64" y="102" width="8" height="8"/>
  <object id="138" gid="323" x="64" y="110" width="8" height="8"/>
  <object id="139" gid="292" x="72" y="102" width="8" height="8"/>
  <object id="140" gid="293" x="80" y="102" width="8" height="8"/>
  <object id="141" gid="325" x="80" y="110" width="8" height="8"/>
  <object id="160" gid="1073741995" x="180" y="38" width="8" height="8"/>
  <object id="161" gid="171" x="180" y="44" width="8" height="8"/>
  <object id="162" gid="171" x="180" y="48" width="8" height="8"/>
  <object id="163" gid="171" x="180" y="52" width="8" height="8"/>
  <object id="164" gid="171" x="180" y="58" width="8" height="8"/>
  <object id="165" gid="171" x="180" y="64" width="8" height="8"/>
  <object id="167" gid="171" x="180" y="72" width="8" height="8"/>
  <object id="168" gid="171" x="180" y="68" width="8" height="8"/>
  <object id="169" gid="171" x="180" y="68" width="8" height="8"/>
  <object id="170" gid="171" x="180" y="68" width="8" height="8"/>
 </objectgroup>
</map>
