<?xml version="1.0" encoding="UTF-8"?>
<map version="1.10" tiledversion="1.10.2" orientation="orthogonal" renderorder="right-down" width="32" height="28" tilewidth="8" tileheight="8" infinite="0" nextlayerid="8" nextobjectid="1">
 <tileset firstgid="1" source="forest_tileset.tsx"/>
 <imagelayer id="4" name="Calque d'Images 1" locked="1">
  <image source="background.png" width="256" height="224"/>
 </imagelayer>
 <layer id="7" name="bg0" width="32" height="28">
  <data encoding="csv">
36,36,36,36,36,36,36,36,36,36,36,36,36,36,36,36,36,36,36,36,36,36,36,36,36,36,36,36,36,36,36,36,
36,36,36,36,36,36,36,36,36,36,36,36,36,36,36,36,36,36,36,36,36,36,36,36,36,36,36,36,36,36,36,36,
36,36,36,36,36,36,36,36,36,36,36,36,36,36,36,36,36,36,36,36,36,36,36,36,36,36,36,36,36,36,36,36,
36,36,36,36,36,36,36,36,36,36,36,36,36,36,36,36,36,36,36,36,36,36,36,36,36,36,36,36,36,36,36,36,
5,5,5,5,5,5,5,5,5,5,5,5,5,5,5,5,5,5,5,5,5,5,5,5,5,5,5,5,5,5,5,5,
37,37,37,37,37,37,37,37,37,37,37,37,37,37,37,37,37,37,37,37,37,37,37,37,37,37,37,37,37,37,37,37,
4,4,4,4,4,4,4,4,4,4,4,4,4,4,4,4,4,4,4,4,4,4,4,4,4,4,4,4,4,4,4,4,
4,4,4,4,4,4,4,4,4,4,4,4,4,4,4,4,4,4,4,4,4,4,4,4,4,4,4,4,4,4,4,4,
4,4,4,4,4,4,4,4,4,4,4,4,4,4,4,4,4,4,4,4,4,4,4,4,4,4,4,4,4,4,4,4,
6,6,6,6,6,6,6,6,6,6,6,6,6,6,6,6,6,6,6,6,6,6,6,6,6,6,6,6,6,6,6,6,
38,38,38,38,38,38,38,38,38,38,38,38,38,38,38,38,38,38,38,38,38,38,38,38,38,38,38,38,38,38,38,38,
7,7,7,7,7,7,7,7,7,7,7,7,7,7,7,7,7,7,7,7,7,7,7,7,7,7,7,7,7,7,7,7,
7,7,7,7,7,7,7,7,7,7,7,7,7,7,7,7,7,7,7,7,7,7,7,7,7,7,7,7,7,7,7,7,
7,7,7,7,7,7,7,7,7,7,7,7,7,7,7,7,7,7,7,7,7,134,135,7,7,7,7,7,7,142,7,7,
2147483656,2147483657,2147483656,7,2147483657,2147483656,8,9,7,7,2147483657,9,7,7,2147483657,2147483656,161,162,163,164,165,166,167,168,169,170,171,172,173,174,7,8,
39,39,39,39,39,39,39,39,39,39,39,39,39,39,39,39,193,194,195,196,197,198,199,200,201,202,203,204,205,206,39,39,
41,40,41,40,40,41,41,41,40,40,41,40,41,40,40,40,225,226,227,228,229,230,231,232,233,234,235,236,237,238,40,40,
42,42,42,42,42,42,42,42,42,42,10,11,44,44,44,44,257,258,259,260,261,262,263,264,265,266,267,268,269,270,42,42,
42,42,42,42,42,42,42,10,11,43,42,42,42,42,42,42,42,42,42,42,42,42,42,42,42,42,42,42,42,42,42,42,
42,42,3221225485,11,1073741868,45,13,42,42,42,1073741834,1073741835,1073741836,1073741837,42,42,42,42,42,42,42,42,42,42,42,42,42,42,42,42,42,42,
2147483661,13,42,42,42,42,42,42,42,42,42,42,42,42,1073741834,1073741835,1073741836,1073741868,1073741868,1073741868,1073741868,1073741869,2147483659,2147483658,42,42,42,42,42,42,42,42,
42,42,42,42,42,42,42,42,42,42,42,42,42,42,42,42,42,42,42,42,42,42,42,42,1073741834,1073741835,1073741836,1073741837,42,42,42,42,
42,42,14,14,46,14,14,14,14,46,14,46,42,14,46,46,46,46,42,42,42,42,42,42,42,42,42,42,1073741834,1073741835,1073741836,1073741837,
42,46,78,46,46,78,78,110,110,110,78,110,46,110,78,78,110,78,46,46,46,46,46,14,14,14,14,14,46,14,46,14,
46,110,76,76,77,76,78,78,78,110,77,76,77,77,76,76,76,77,76,110,110,78,110,110,110,78,110,110,110,110,78,110,
76,77,109,108,141,108,77,77,76,77,108,108,108,109,108,108,108,109,140,76,76,76,77,76,76,76,77,76,76,76,76,77,
141,140,108,109,141,140,108,109,109,140,108,109,140,141,109,108,140,108,109,140,109,108,109,109,140,140,140,109,141,140,141,108,
141,140,140,108,108,108,140,140,108,109,108,140,140,140,140,109,141,109,109,108,109,140,109,140,140,108,109,109,140,108,141,141
</data>
 </layer>
 <layer id="2" name="bg1" width="32" height="28">
  <data encoding="csv">
2147483650,2147483649,0,0,65,66,0,0,0,0,1,2,2147483650,2147483649,0,1073741859,0,0,0,65,66,0,0,0,1073741859,0,0,1,2,2147483650,2147483649,0,
2147483682,2147483681,0,0,97,98,0,0,0,0,33,34,2147483682,2147483681,0,1073741827,0,0,0,97,98,0,0,0,1073741827,0,0,33,34,2147483682,2147483681,0,
2147483650,2147483649,0,0,65,66,0,0,0,0,1,2,2147483650,2147483649,0,3,0,0,0,65,66,0,0,0,3,0,0,1,2,2147483650,2147483649,0,
2147483682,2147483681,0,0,97,98,0,0,0,0,33,34,2147483682,2147483681,0,1073741859,0,0,0,97,98,0,0,0,1073741859,0,0,33,34,2147483682,2147483681,0,
2147483650,2147483649,0,0,65,66,0,0,0,0,33,34,2147483650,2147483649,0,1073741827,0,0,0,65,66,0,0,0,1073741827,0,0,33,34,2147483650,2147483649,0,
2147483650,2147483649,0,0,97,98,2147483717,68,68,2147483715,33,34,2147483650,2147483649,0,35,0,0,0,97,98,0,0,0,35,0,100,101,101,101,101,2147483748,
2147483650,2147483649,0,0,65,66,0,0,0,2147483747,1,2,2147483650,2147483649,0,3,0,0,0,65,66,0,0,0,3,0,0,1,2,2147483650,2147483649,0,
2147483682,2147483681,0,0,97,98,0,0,0,0,33,34,2147483682,2147483681,67,68,68,68,69,97,98,0,0,0,35,0,0,33,34,2147483682,2147483681,0,
2147483650,2147483649,0,0,1073741921,1073741922,0,0,0,0,1,2,2147483650,2147483649,99,3,0,0,0,65,66,0,0,0,3,0,0,1,2,2147483650,2147483649,0,
2147483650,2147483649,0,0,1073741889,1073741890,0,0,0,0,33,34,2147483650,2147483649,0,35,0,0,0,97,98,0,0,0,35,0,0,33,34,2147483650,2147483649,0,
2147483650,2147483649,0,0,1073741921,1073741922,0,0,0,0,1,2,2147483650,2147483649,0,3,0,0,0,97,98,2147483717,68,68,68,68,2147483715,1,2,2147483650,2147483649,0,
101,101,101,2147483748,1073741889,1073741890,0,0,0,0,33,34,2147483650,2147483649,0,35,0,0,0,97,98,0,0,0,35,0,2147483747,33,34,2147483650,2147483649,0,
2147483650,2147483649,0,0,65,66,0,0,0,0,33,34,2147483650,2147483649,0,1073741859,0,0,0,65,66,0,0,0,1073741859,0,0,33,34,2147483650,2147483649,0,
2147483682,2147483681,0,0,97,98,0,0,0,0,33,34,2147483682,2147483681,0,1073741827,0,0,0,97,98,0,0,0,1073741827,0,0,33,34,2147483682,2147483681,67,
2147483650,2147483649,0,0,65,66,0,0,0,0,1,2,2147483650,2147483649,0,1073741859,0,0,0,65,66,0,0,0,1073741859,0,0,1,2,2147483650,2147483649,99,
2147483650,2147483649,0,0,97,98,0,0,0,0,33,34,2147483650,2147483649,0,1073741827,0,0,0,97,98,0,0,0,1073741827,0,0,33,34,2147483650,2147483649,0,
2147483650,2147483649,0,0,65,66,2147483717,68,68,2147483715,1,2,2147483650,2147483649,0,3,0,0,0,65,66,0,0,0,3,0,0,1,2,2147483650,2147483649,0,
2147483682,2147483681,0,0,97,98,0,0,0,2147483747,33,34,2147483682,2147483681,0,35,0,0,0,97,98,0,0,0,35,0,0,33,34,2147483682,2147483681,0,
2147483650,2147483649,0,0,1073741921,1073741922,0,0,0,0,33,34,2147483650,2147483649,67,68,68,68,69,65,66,0,0,0,3,0,0,33,34,2147483650,2147483649,0,
2147483682,2147483681,0,0,1073741889,1073741890,0,0,0,0,33,34,2147483682,2147483681,99,35,0,0,0,97,98,0,0,0,35,0,0,33,34,2147483682,2147483681,0,
2147483682,2147483681,0,0,65,66,0,0,0,0,1,2,2147483682,2147483681,0,3,0,0,0,65,66,0,0,0,3,0,0,1,2,2147483682,2147483681,0,
2147483682,2147483681,0,0,97,98,0,0,0,0,1,2,2147483682,2147483681,0,35,0,0,0,97,98,0,0,0,35,0,0,1,2,2147483682,2147483681,0,
2147483682,2147483681,0,0,65,66,0,0,0,0,1,2,2147483682,2147483681,0,3,0,0,0,1073741921,1073741922,0,0,2147483717,68,68,2147483715,1,2,2147483682,2147483681,0,
2147483682,2147483681,0,0,97,98,0,0,0,0,33,34,2147483682,2147483681,0,35,0,0,0,1073741889,1073741890,0,0,0,35,0,2147483747,33,34,2147483682,2147483681,0,
2147483650,2147483649,0,0,65,66,0,100,101,101,101,101,101,101,101,101,2147483748,0,0,1073741921,1073741922,0,0,0,3,0,0,1,2,2147483650,2147483649,0,
2147483682,2147483681,0,0,97,98,0,0,0,0,33,34,2147483682,2147483681,0,35,0,0,0,1073741889,1073741890,0,0,0,35,0,0,33,34,2147483682,2147483681,0,
2147483650,2147483649,0,0,65,66,0,0,0,0,1,2,2147483650,2147483649,0,3,0,0,0,3221225570,3221225569,0,0,0,3,0,0,1,2,2147483650,2147483649,0,
2147483682,2147483681,0,0,97,98,0,0,0,0,33,34,2147483682,2147483681,0,35,0,0,0,3221225538,3221225537,0,0,0,35,0,0,33,34,2147483682,2147483681,0
</data>
 </layer>
 <layer id="6" name="sprites" width="32" height="28">
  <data encoding="csv">
0,0,0,0,0,0,0,0,0,0,0,0,0,0,0,0,0,0,0,0,0,0,0,0,0,0,0,0,0,0,0,0,
0,0,0,0,0,0,0,0,0,0,0,0,0,0,0,0,0,0,0,0,0,0,0,0,0,0,0,0,0,0,0,0,
0,0,0,0,0,0,0,0,0,0,0,0,0,0,0,0,0,0,0,0,0,0,0,0,0,0,0,0,0,0,0,0,
0,0,0,0,0,0,0,0,0,0,0,0,0,0,0,0,0,0,0,0,0,0,0,0,0,0,0,0,0,0,0,0,
0,0,0,0,0,0,0,0,0,0,0,0,0,0,0,0,0,0,0,0,0,0,0,0,0,0,0,0,0,0,0,0,
0,0,0,0,0,0,0,0,0,0,0,0,0,0,0,0,0,0,0,0,0,0,0,0,0,0,0,0,0,0,0,0,
0,0,0,0,0,0,0,0,0,0,0,0,0,0,0,0,0,0,0,0,0,0,0,0,0,0,0,0,0,0,0,0,
0,0,0,0,0,0,0,0,0,0,0,0,0,0,0,0,0,0,0,0,0,0,0,0,0,0,0,0,0,0,0,0,
0,0,0,0,0,0,0,0,0,0,0,0,0,0,0,0,0,0,0,0,0,0,0,0,0,0,0,0,0,0,0,0,
0,0,0,0,0,0,0,0,0,0,0,0,0,0,0,0,0,0,0,0,0,0,0,0,0,0,0,0,0,0,0,0,
0,0,0,0,0,0,0,0,0,0,0,0,0,0,0,0,0,0,0,0,0,0,0,0,0,0,0,0,0,0,0,0,
0,0,0,0,0,0,0,0,0,0,0,0,0,0,0,0,0,0,0,0,0,0,0,0,0,0,0,0,0,0,0,0,
0,0,0,0,0,0,519,520,521,0,0,0,0,0,0,0,0,0,0,0,0,0,0,0,0,0,0,0,0,0,0,0,
0,0,0,0,0,0,551,552,553,0,0,0,0,0,0,0,0,0,0,0,0,0,0,0,0,0,0,0,0,0,0,0,
0,0,0,0,0,0,583,584,585,0,0,0,0,0,0,0,0,0,0,0,0,0,0,0,0,0,0,0,0,0,0,0,
0,0,0,0,0,0,615,616,617,0,0,0,0,0,0,0,0,0,0,0,0,0,0,0,0,0,0,0,0,0,0,0,
0,0,0,0,0,0,0,0,0,0,0,0,0,0,0,0,0,0,0,0,0,0,0,0,0,0,0,0,0,0,0,0,
0,0,0,0,0,0,0,0,0,0,0,0,0,0,0,0,0,0,0,0,0,2147484419,2147484418,2147484417,0,0,0,0,0,0,0,0,
0,0,0,0,0,0,0,0,0,0,0,0,0,0,0,0,0,0,0,0,0,2147484451,2147484450,2147484449,0,0,0,0,0,0,0,0,
0,0,0,0,0,0,0,0,0,0,0,0,0,0,0,0,0,0,0,0,0,2147484483,2147484482,2147484481,0,0,0,0,0,0,0,0,
0,0,0,0,0,0,0,0,0,0,0,0,0,0,0,0,0,0,0,0,0,2147484515,2147484514,2147484513,0,0,0,0,0,0,0,0,
0,0,0,0,0,0,0,0,0,0,0,0,0,0,0,0,0,0,0,0,0,0,0,0,0,0,0,0,0,0,0,0,
0,0,0,0,0,0,0,0,0,0,0,0,0,0,0,0,0,0,0,0,0,0,0,0,0,0,0,0,0,0,0,0,
0,0,0,0,0,0,0,0,0,0,0,0,0,0,0,0,0,0,0,0,0,0,0,0,0,0,0,0,0,0,0,0,
0,0,0,0,0,0,0,0,0,0,0,0,0,0,0,0,0,0,0,0,0,0,0,0,0,0,0,0,0,0,0,0,
0,0,0,0,0,0,0,0,0,0,0,0,0,0,0,0,0,0,0,0,0,0,0,0,0,0,0,0,0,0,0,0,
0,0,0,0,0,0,0,0,0,0,0,0,0,0,0,0,0,0,0,0,0,0,0,0,0,0,0,0,0,0,0,0,
0,0,0,0,0,0,0,0,0,0,0,0,0,0,0,0,0,0,0,0,0,0,0,0,0,0,0,0,0,0,0,0
</data>
 </layer>
</map>
