<?xml version="1.0" encoding="UTF-8"?>
<map version="1.10" tiledversion="1.10.0" orientation="orthogonal" renderorder="right-down" width="32" height="28" tilewidth="8" tileheight="8" infinite="0" nextlayerid="9" nextobjectid="87">
 <tileset firstgid="1" source="tournament_tileset.tsx"/>
 <layer id="7" name="bg0" width="32" height="28">
  <data encoding="csv">
33,33,33,33,33,33,33,33,33,33,33,33,33,33,33,33,33,33,33,33,33,33,33,33,33,33,33,33,33,33,33,33,
33,33,33,33,33,33,33,33,33,33,33,33,33,33,33,33,33,33,33,33,33,33,33,33,33,33,33,33,33,33,33,33,
33,33,33,33,33,33,33,33,33,33,33,33,33,33,33,33,33,33,33,33,33,33,33,33,33,33,33,33,33,33,33,33,
33,33,33,33,33,33,33,33,33,33,33,33,33,33,33,33,33,33,33,33,33,33,33,33,33,33,33,33,33,33,33,33,
2,2,2,2,2,2,2,2,2,2,2,2,2,2,2,2,2,2,2,2,2,2,2,2,2,2,2,2,2,2,2,2,
34,34,34,34,34,34,34,34,34,34,34,34,34,34,34,34,34,34,34,34,34,34,34,34,34,34,34,34,34,34,34,34,
1,1,1,1,1,1,1,1,1,1,1,1,1,1,1,1,1,1,1,1,1,1,1,1,1,1,1,1,1,1,1,1,
1,1,1,1,1,1,1,1,1,1,1,1,1,1,1,1,1,1,1,1,1,1,1,1,1,1,1,1,1,1,1,1,
3,3,3,3,3,3,3,3,3,3,3,3,3,3,3,3,3,3,3,3,3,3,3,3,3,3,3,3,3,3,3,3,
35,35,35,35,35,35,35,35,35,35,35,35,35,35,35,35,35,35,35,35,35,35,35,35,35,35,35,35,35,35,35,35,
4,4,4,4,4,4,4,4,4,4,4,4,4,4,4,4,4,4,4,4,4,4,4,4,4,4,4,4,4,4,4,4,
4,4,4,4,4,4,4,4,4,4,4,4,4,4,4,4,4,4,4,4,4,4,4,4,4,4,4,4,4,4,4,4,
4,4,4,4,4,4,4,4,4,4,4,4,4,4,4,132,4,4,4,4,4,4,4,4,4,4,4,4,4,4,4,4,
4,4,4,4,4,4,4,4,4,4,4,2147483652,2147483652,2147483652,2147483813,2147483812,164,165,4,4,4,4,4,4,4,4,4,4,4,4,4,4,
5,6,7,8,9,10,11,12,4,4,4,2147483659,11,2147483846,2147483845,2147483844,196,197,198,2147483659,11,4,4,4,5,6,7,8,9,10,11,12,
37,38,39,39,39,39,43,44,2147483657,2147483656,6,2147483691,2147483879,2147483878,2147483877,2147483876,228,229,230,231,43,44,2147483659,2147483692,37,38,39,39,39,39,43,44,
36,36,36,36,36,36,36,36,36,36,36,2147483912,2147483911,2147483910,2147483909,2147483908,260,261,262,263,264,36,36,36,36,36,36,36,36,36,36,36,
40,40,40,40,40,40,40,40,40,40,40,101,102,2147483750,102,2147483750,102,2147483750,102,2147483750,2147483749,40,40,40,40,40,40,40,40,40,40,40,
40,40,40,40,40,40,40,40,40,40,40,40,100,71,72,73,74,75,76,100,40,40,40,40,40,40,40,40,40,40,40,40,
2147483689,41,2147483689,41,41,2147483689,41,41,2147483689,2147483689,41,41,100,103,104,105,106,107,108,100,41,41,2147483689,2147483689,41,2147483689,41,2147483689,2147483689,41,2147483689,41,
65,66,42,42,2147483714,2147483713,65,66,42,42,2147483714,2147483713,100,135,136,137,138,139,140,100,65,66,42,42,2147483714,2147483713,65,66,42,42,2147483714,2147483713,
97,98,99,99,2147483746,2147483745,97,98,99,99,2147483746,2147483745,67,69,68,2147483718,2147483718,2147483716,69,2147483715,97,98,99,99,2147483746,2147483745,97,98,99,99,2147483746,2147483745,
129,130,131,131,2147483778,2147483777,129,130,131,131,2147483778,2147483777,67,68,70,2147483715,68,67,69,2147483715,129,130,131,131,2147483778,2147483777,129,130,131,131,2147483778,2147483777,
161,162,163,163,2147483810,2147483809,161,162,163,163,2147483810,2147483809,67,69,2147483717,2147483717,68,2147483718,69,2147483715,161,162,163,163,2147483810,2147483809,161,162,163,163,2147483810,2147483809,
169,170,171,172,169,170,171,172,169,170,171,172,169,170,171,172,169,170,171,172,169,170,171,172,169,170,171,172,169,170,171,172,
201,202,203,204,201,202,203,204,201,202,203,204,201,202,203,204,201,202,203,204,201,202,203,204,201,202,203,204,201,202,203,204,
233,234,235,236,233,234,235,236,233,234,235,236,233,234,235,236,233,234,235,236,233,234,235,236,233,234,235,236,233,234,235,236,
265,266,267,268,265,266,267,268,265,266,267,268,265,266,267,268,265,266,267,268,265,266,267,268,265,266,267,268,265,266,267,268
</data>
 </layer>
 <layer id="2" name="bg1" width="32" height="28">
  <data encoding="csv">
0,0,0,0,0,0,0,0,0,0,0,0,0,0,0,0,0,0,0,0,0,0,0,0,0,0,0,0,0,0,0,0,
0,0,0,0,0,0,0,0,0,0,0,0,0,0,0,0,0,0,0,0,0,0,0,0,0,0,0,0,0,0,0,0,
0,0,0,0,0,0,0,0,0,0,0,0,0,0,0,0,0,0,0,0,0,0,0,0,0,0,0,0,0,0,0,0,
0,0,0,0,0,0,0,0,0,0,0,0,0,0,0,0,0,0,0,0,0,0,0,0,0,0,0,0,0,0,0,0,
0,0,0,0,0,0,0,0,0,0,0,0,0,0,0,0,0,0,0,0,0,0,0,0,0,0,0,0,0,0,0,0,
0,0,193,226,194,227,193,227,194,226,193,0,0,0,0,0,0,0,0,0,0,193,226,194,227,193,227,194,226,193,0,0,
0,0,0,258,0,0,0,0,0,258,0,0,0,0,0,0,0,0,0,0,0,0,258,0,0,0,0,0,258,0,0,0,
0,0,0,258,0,0,0,0,0,258,0,0,0,0,0,0,0,0,0,0,0,0,258,0,0,0,0,0,258,0,0,0,
0,0,0,258,0,0,0,0,0,258,0,0,0,0,0,0,0,0,0,0,0,0,258,0,0,0,0,0,258,0,0,0,
0,0,0,258,0,0,0,0,0,258,0,0,0,0,0,0,0,0,0,0,0,0,258,0,0,0,0,0,258,0,0,0,
0,0,0,258,0,0,0,0,0,258,0,0,0,0,0,0,0,0,0,0,0,0,258,0,0,0,0,0,258,0,0,0,
0,0,195,226,193,0,0,0,0,258,0,0,0,0,0,0,0,0,0,0,0,194,226,193,0,0,0,0,258,0,0,0,
0,0,0,258,0,0,0,0,0,258,0,0,0,0,0,0,0,0,0,0,0,0,258,0,0,0,0,0,258,0,0,0,
0,0,0,258,0,0,0,0,0,258,0,0,0,0,0,0,0,0,0,0,0,0,258,0,0,0,0,0,258,0,0,0,
0,0,0,258,0,0,0,0,195,226,193,0,0,0,0,0,0,0,0,0,0,0,258,0,0,0,0,194,226,195,0,0,
0,0,0,258,0,0,0,0,0,258,0,0,0,0,0,0,0,0,0,0,0,0,258,0,0,0,0,0,258,0,0,0,
0,0,0,258,0,0,0,0,0,258,0,0,0,0,0,0,0,0,0,0,0,0,258,0,0,0,0,0,258,0,0,0,
0,0,0,258,0,0,0,0,0,258,0,0,0,0,0,0,0,0,0,0,0,0,258,0,0,0,0,0,258,0,0,0,
0,0,0,258,0,0,0,0,0,258,0,0,0,0,0,0,0,0,0,0,0,0,258,0,0,0,0,0,258,0,0,0,
0,0,193,226,194,0,0,0,0,258,0,0,0,0,0,0,0,0,0,0,0,193,226,195,0,0,0,0,258,0,0,0,
0,0,0,258,0,0,0,0,0,258,0,0,0,0,0,0,0,0,0,0,0,0,258,0,0,0,0,0,258,0,0,0,
0,0,0,258,0,0,0,0,0,258,0,0,0,0,0,0,0,0,0,0,0,0,258,0,0,0,0,0,258,0,0,0,
0,0,0,258,0,0,0,0,0,258,0,0,0,0,0,0,0,0,0,0,0,0,258,0,0,0,0,0,258,0,0,0,
0,0,0,258,0,0,0,0,0,258,0,0,0,0,0,0,0,0,0,0,0,0,258,0,0,0,0,0,258,0,0,0,
0,0,194,226,195,227,193,227,194,226,195,0,0,0,0,0,0,0,0,0,0,194,226,195,227,193,227,195,226,194,0,0,
0,0,0,258,0,0,0,0,0,258,0,0,0,0,0,0,0,0,0,0,0,0,258,0,0,0,0,0,258,0,0,0,
0,0,0,257,0,0,0,0,0,257,0,0,0,0,0,0,0,0,0,0,0,0,257,0,0,0,0,0,257,0,0,0,
0,0,0,0,0,0,0,0,0,0,0,0,0,0,0,0,0,0,0,0,0,0,0,0,0,0,0,0,0,0,0,0
</data>
 </layer>
 <objectgroup id="8" name="sprites">
  <object id="1" gid="868" x="16" y="88" width="8" height="8"/>
  <object id="2" gid="869" x="24" y="88" width="8" height="8"/>
  <object id="3" gid="870" x="32" y="88" width="8" height="8"/>
  <object id="4" gid="838" x="32" y="80" width="8" height="8"/>
  <object id="5" gid="837" x="24" y="80" width="8" height="8"/>
  <object id="6" gid="836" x="16" y="80" width="8" height="8"/>
  <object id="7" gid="804" x="16" y="72" width="8" height="8"/>
  <object id="8" gid="805" x="24" y="72" width="8" height="8"/>
  <object id="9" gid="806" x="32" y="72" width="8" height="8"/>
  <object id="10" gid="772" x="16" y="64" width="8" height="8"/>
  <object id="11" gid="773" x="24" y="64" width="8" height="8"/>
  <object id="12" gid="774" x="32" y="64" width="8" height="8"/>
  <object id="13" gid="2147484136" x="120" y="216" width="8" height="8"/>
  <object id="14" gid="2147484104" x="120" y="208" width="8" height="8"/>
  <object id="15" gid="454" x="128" y="208" width="8" height="8"/>
  <object id="16" gid="457" x="128" y="208" width="8" height="8"/>
  <object id="17" gid="2147484104" x="120" y="208" width="8" height="8"/>
  <object id="18" gid="455" x="112" y="208" width="8" height="8"/>
  <object id="19" gid="2147484072" x="120" y="200" width="8" height="8"/>
  <object id="20" gid="2147484073" x="112" y="200" width="8" height="8"/>
  <object id="21" gid="2147484040" x="120" y="192" width="8" height="8"/>
  <object id="23" gid="2147484041" x="112" y="192" width="8" height="8"/>
  <object id="24" gid="2147484039" x="128" y="192" width="8" height="8"/>
  <object id="25" gid="2147484105" x="112" y="208" width="8" height="8"/>
  <object id="37" gid="237" x="128" y="64" width="8" height="8"/>
  <object id="38" gid="238" x="136" y="64" width="8" height="8"/>
  <object id="39" gid="205" x="128" y="56" width="8" height="8"/>
  <object id="40" gid="206" x="136" y="56" width="8" height="8"/>
  <object id="41" gid="174" x="136" y="48" width="8" height="8"/>
  <object id="42" gid="173" x="128" y="48" width="8" height="8"/>
  <object id="43" gid="142" x="136" y="40" width="8" height="8"/>
  <object id="44" gid="141" x="128" y="40" width="8" height="8"/>
  <object id="45" gid="109" x="120" y="32" width="8" height="8"/>
  <object id="46" gid="110" x="128" y="32" width="8" height="8"/>
  <object id="47" gid="111" x="136" y="32" width="8" height="8"/>
  <object id="48" gid="112" x="144" y="32" width="8" height="8"/>
  <object id="49" gid="80" x="144" y="24" width="8" height="8"/>
  <object id="50" gid="79" x="136" y="24" width="8" height="8"/>
  <object id="51" gid="78" x="128" y="24" width="8" height="8"/>
  <object id="52" gid="77" x="120" y="24" width="8" height="8"/>
  <object id="53" gid="45" x="120" y="16" width="8" height="8"/>
  <object id="54" gid="46" x="128" y="16" width="8" height="8"/>
  <object id="55" gid="47" x="136" y="16" width="8" height="8"/>
  <object id="56" gid="48" x="144" y="16" width="8" height="8"/>
  <object id="57" gid="16" x="144" y="8" width="8" height="8"/>
  <object id="58" gid="15" x="136" y="8" width="8" height="8"/>
  <object id="59" gid="14" x="128" y="8" width="8" height="8"/>
  <object id="60" gid="13" x="120" y="8" width="8" height="8"/>
  <object id="61" gid="13" x="88" y="-64" width="8" height="8"/>
  <object id="62" gid="2147483885" x="104" y="120" width="8" height="8"/>
  <object id="63" gid="2147483886" x="96" y="120" width="8" height="8"/>
  <object id="64" gid="2147483853" x="104" y="112" width="8" height="8"/>
  <object id="65" gid="2147483854" x="96" y="112" width="8" height="8"/>
  <object id="66" gid="2147483822" x="96" y="104" width="8" height="8"/>
  <object id="67" gid="2147483821" x="104" y="104" width="8" height="8"/>
  <object id="68" gid="2147483790" x="96" y="96" width="8" height="8"/>
  <object id="69" gid="2147483789" x="104" y="96" width="8" height="8"/>
  <object id="70" gid="2147483757" x="112" y="88" width="8" height="8"/>
  <object id="71" gid="2147483758" x="104" y="88" width="8" height="8"/>
  <object id="72" gid="2147483759" x="96" y="88" width="8" height="8"/>
  <object id="73" gid="2147483760" x="88" y="88" width="8" height="8"/>
  <object id="74" gid="2147483728" x="88" y="80" width="8" height="8"/>
  <object id="75" gid="2147483727" x="96" y="80" width="8" height="8"/>
  <object id="76" gid="2147483726" x="104" y="80" width="8" height="8"/>
  <object id="77" gid="2147483725" x="112" y="80" width="8" height="8"/>
  <object id="78" gid="2147483693" x="112" y="72" width="8" height="8"/>
  <object id="79" gid="2147483694" x="104" y="72" width="8" height="8"/>
  <object id="80" gid="2147483695" x="96" y="72" width="8" height="8"/>
  <object id="81" gid="2147483696" x="88" y="72" width="8" height="8"/>
  <object id="82" gid="2147483664" x="88" y="64" width="8" height="8"/>
  <object id="83" gid="2147483663" x="96" y="64" width="8" height="8"/>
  <object id="84" gid="2147483662" x="104" y="64" width="8" height="8"/>
  <object id="85" gid="2147483661" x="112" y="64" width="8" height="8"/>
  <object id="86" gid="2147483661" x="144" y="-8" width="8" height="8"/>
 </objectgroup>
</map>
