<?xml version="1.0" encoding="UTF-8"?>
<map version="1.10" tiledversion="1.10.0" orientation="orthogonal" renderorder="right-down" width="32" height="28" tilewidth="8" tileheight="8" infinite="0" nextlayerid="14" nextobjectid="87">
 <tileset firstgid="1" source="font_tileset.tsx"/>
 <tileset firstgid="59" source="title_background_tileset.tsx"/>
 <tileset firstgid="565" source="title_tileset.tsx"/>
 <layer id="13" name="bg1" width="32" height="28">
  <data encoding="csv">
59,60,61,60,60,60,60,60,60,60,60,62,60,60,63,60,60,60,60,64,60,60,60,65,60,60,60,60,66,60,60,60,
67,67,68,67,67,67,67,67,67,67,67,67,67,67,67,69,67,70,67,67,67,67,67,67,71,67,72,73,67,67,67,67,
74,74,75,76,74,74,74,74,74,74,74,74,74,77,74,78,74,79,80,74,74,74,74,74,81,74,74,74,74,82,74,74,
83,83,83,83,83,84,83,83,83,83,83,83,83,85,83,83,86,83,83,83,83,87,88,83,83,89,83,83,83,83,90,91,
92,93,92,92,92,92,92,94,95,96,97,92,92,92,92,92,92,92,92,92,92,92,92,92,92,92,98,92,92,92,92,92,
99,100,101,102,103,104,105,106,107,108,109,110,111,112,113,114,115,116,117,118,119,120,121,122,99,99,123,124,125,126,127,128,
129,130,131,132,133,134,135,136,137,138,137,139,140,137,141,142,137,143,137,137,137,137,144,145,146,147,148,149,150,151,137,137,
152,153,154,154,155,156,137,137,137,137,157,158,159,160,161,154,162,137,137,137,137,137,137,137,137,137,163,164,165,166,167,168,
169,169,169,169,169,169,170,171,169,169,169,172,169,173,174,175,176,177,169,170,178,179,169,169,169,169,180,169,169,181,169,169,
182,183,184,185,186,187,188,189,190,191,192,193,194,195,196,197,198,199,182,200,182,186,201,202,203,204,205,206,207,208,209,210,
211,212,213,214,215,216,217,218,219,220,221,222,223,224,225,226,227,228,229,230,231,232,233,234,235,236,237,238,239,240,241,242,
243,244,245,246,247,246,248,249,250,251,252,253,254,255,256,257,258,259,260,261,262,263,264,265,266,267,268,269,270,271,272,273,
274,275,276,277,278,279,280,281,282,283,284,285,286,287,288,289,288,290,291,292,293,294,295,296,297,298,299,300,301,302,303,304,
305,306,307,308,309,310,311,312,313,314,315,316,317,318,319,320,321,315,322,323,324,325,326,327,328,329,330,331,332,333,334,335,
336,337,338,339,340,341,342,343,344,345,346,347,348,349,350,351,352,353,347,348,354,355,356,357,358,359,360,361,362,363,364,365,
366,367,368,369,370,371,372,373,374,60,375,376,377,60,60,378,60,60,379,380,381,382,383,384,385,386,387,388,389,390,391,392,
393,394,395,396,397,398,399,374,400,401,60,60,60,60,402,403,404,60,405,60,60,60,381,60,406,407,408,409,410,411,412,413,
414,415,416,417,249,418,419,420,421,422,423,424,425,426,60,427,402,428,60,60,60,429,60,60,430,431,432,433,434,435,436,437,
438,439,440,441,442,443,60,60,60,444,445,60,60,60,446,60,60,447,448,60,449,60,60,60,60,450,60,451,452,453,454,455,
456,457,458,459,460,60,446,60,461,462,60,463,60,464,465,466,467,60,60,60,60,60,468,469,60,470,401,60,383,471,472,473,
474,249,475,476,60,60,60,60,60,60,477,60,60,478,60,60,479,60,60,480,481,482,60,60,60,483,60,60,484,60,383,485,
486,487,488,60,60,489,490,60,491,60,60,60,492,60,60,493,494,60,495,60,60,496,497,60,60,498,60,60,60,499,500,501,
502,476,60,503,60,60,60,60,60,504,505,506,60,60,60,60,507,490,508,60,60,60,60,60,509,60,60,60,60,510,60,60,
511,60,512,513,60,60,60,60,60,60,514,515,516,517,518,60,60,60,496,60,519,520,60,60,60,519,521,60,522,60,523,60,
60,60,524,60,60,525,60,60,526,527,60,405,528,60,529,530,531,60,60,60,60,60,60,60,60,532,533,60,534,60,60,60,
60,535,60,60,536,383,537,60,60,60,538,60,539,540,60,60,60,541,60,60,60,60,60,542,60,60,60,60,60,60,60,60,
60,60,60,60,60,543,60,60,60,544,60,60,545,546,60,60,499,547,548,549,60,60,60,60,60,499,550,60,60,551,60,552,
444,553,552,60,60,60,60,554,60,555,556,60,60,60,60,60,60,60,60,60,444,553,557,60,60,558,60,559,60,560,561,562
</data>
 </layer>
 <layer id="12" name="bg3" width="32" height="28">
  <data encoding="csv">
565,566,567,568,569,570,571,572,573,574,575,576,577,578,579,580,581,582,583,584,585,586,587,588,589,590,591,592,593,594,595,596,
597,598,599,600,601,602,603,604,605,606,607,608,609,610,611,612,613,614,615,616,617,618,619,620,621,622,623,624,625,626,627,628,
629,630,631,632,633,634,635,636,637,638,639,640,641,642,643,644,645,646,647,648,649,650,651,652,653,654,655,656,657,658,659,660,
661,662,663,664,665,666,667,668,669,670,671,672,673,674,675,676,677,678,679,680,681,682,683,684,685,686,687,688,689,690,691,692,
693,694,695,696,697,698,699,700,701,702,703,704,705,706,707,708,709,710,711,712,713,714,715,716,717,718,719,720,721,722,723,724,
725,726,727,728,729,730,731,732,733,734,735,736,737,738,739,740,741,742,743,744,745,746,747,748,749,750,751,752,753,754,755,756,
0,0,0,0,0,0,0,0,0,0,0,0,0,0,0,0,0,0,0,0,0,0,0,0,0,0,0,0,0,0,0,0,
0,0,0,0,0,0,0,0,0,0,0,0,0,0,0,0,0,0,0,0,0,0,0,0,0,0,0,0,0,0,0,0,
0,0,0,0,0,0,0,0,0,0,0,0,0,0,0,0,0,0,0,0,0,0,0,0,0,0,0,0,0,0,0,0,
0,0,0,0,0,0,0,0,0,0,0,0,0,0,0,0,0,0,0,0,0,0,0,0,0,0,0,0,0,0,0,0,
0,0,0,0,0,0,0,0,0,0,0,0,0,0,0,0,0,0,0,0,0,0,0,0,0,0,0,0,0,0,0,0,
0,0,0,0,0,0,0,0,0,0,0,0,0,0,0,0,0,0,0,0,0,0,0,0,0,0,0,0,0,0,0,0,
0,0,0,0,0,0,0,0,0,0,0,0,0,0,0,0,0,0,0,0,0,0,0,0,0,0,0,0,0,0,0,0,
0,0,0,0,0,0,0,0,0,0,0,0,0,0,0,0,0,0,0,0,0,0,0,0,0,0,0,0,0,0,0,0,
0,0,0,0,0,0,0,0,0,0,0,0,0,0,0,0,0,0,0,0,0,0,0,0,0,0,0,0,0,0,0,0,
0,0,0,0,0,0,0,0,0,0,0,0,0,0,0,0,0,0,0,0,0,0,0,0,0,0,0,0,0,0,0,0,
0,0,0,0,0,0,0,0,0,0,0,0,0,0,0,0,0,0,0,0,0,0,0,0,0,0,0,0,0,0,0,0,
0,0,0,0,0,0,0,0,0,0,0,0,0,0,0,0,0,0,0,0,0,0,0,0,0,0,0,0,0,0,0,0,
0,0,0,0,0,0,0,0,0,0,0,0,0,0,0,0,0,0,0,0,0,0,0,0,0,0,0,0,0,0,0,0,
0,0,0,0,0,0,0,0,0,0,0,0,0,0,0,0,0,0,0,0,0,0,0,0,0,0,0,0,0,0,0,0,
0,0,0,0,0,0,0,0,0,0,0,0,0,0,0,0,0,0,0,0,0,0,0,0,0,0,0,0,0,0,0,0,
0,0,0,0,0,0,0,0,0,0,16,18,5,19,19,0,19,20,1,18,20,0,0,0,0,0,0,0,0,0,0,0,
0,0,0,0,0,0,0,0,0,0,45,47,34,48,48,0,48,49,30,47,49,0,0,0,0,0,0,0,0,0,0,0,
0,0,0,0,0,0,0,0,0,0,0,0,0,0,0,0,0,0,0,0,0,0,0,0,0,0,0,0,0,0,0,0,
0,0,0,0,0,0,0,0,0,0,0,0,0,0,0,0,0,0,0,0,0,0,0,0,0,0,0,0,0,0,0,0,
0,0,0,0,0,0,0,0,0,0,0,0,0,0,0,0,0,0,0,0,0,0,0,0,0,0,0,0,0,0,0,0,
0,0,0,0,0,0,0,0,0,0,0,0,0,0,0,0,0,0,0,0,0,0,0,0,0,0,0,0,0,0,0,0,
0,0,0,0,0,0,0,0,0,0,0,0,0,0,0,0,0,0,0,0,0,0,0,0,0,0,0,0,0,0,0,0
</data>
 </layer>
</map>
