<?xml version="1.0" encoding="UTF-8"?>
<map version="1.10" tiledversion="1.10.0" orientation="orthogonal" renderorder="right-down" width="32" height="28" tilewidth="8" tileheight="8" infinite="0" nextlayerid="9" nextobjectid="287">
 <tileset firstgid="1" source="castle_tileset.tsx"/>
 <tileset firstgid="897" name="king_tileset" tilewidth="8" tileheight="8" tilecount="896" columns="32">
  <image source="king_tileset.png" width="256" height="224"/>
 </tileset>
 <layer id="7" name="bg0" width="32" height="28" locked="1">
  <data encoding="csv">
7,7,7,7,7,7,7,7,7,7,7,7,7,7,7,7,7,7,7,7,7,7,7,7,7,7,7,7,7,7,7,7,
7,1073741937,1073741938,7,7,7,7,7,7,7,7,7,7,7,7,7,7,7,7,7,7,7,7,7,7,7,7,7,7,1073741937,1073741938,7,
7,1073741905,1073741906,7,7,7,7,7,7,7,7,7,7,7,7,7,7,7,7,7,7,7,7,7,7,7,7,7,7,1073741905,1073741906,7,
7,81,82,7,7,7,7,7,7,7,7,7,7,7,7,7,7,7,7,7,7,7,7,7,7,7,7,7,7,81,82,7,
7,81,82,7,1073741937,1073741938,7,7,7,7,7,7,7,7,7,7,7,7,7,7,7,7,7,7,7,7,1073741937,1073741938,7,81,82,7,
7,81,82,7,1073741905,1073741906,7,7,7,7,7,7,7,7,7,7,7,7,7,7,7,7,7,7,7,7,1073741905,1073741906,7,81,82,7,
7,81,82,7,81,82,7,7,1073741874,7,7,7,1073741874,7,7,7,1073741874,7,7,7,1073741874,7,7,7,1073741874,7,81,82,7,81,82,7,
7,79,80,7,81,82,7,7,17,7,7,7,17,7,7,7,17,7,7,7,17,7,7,7,17,7,81,82,7,79,80,7,
7,111,112,7,79,80,7,7,17,7,7,7,17,7,7,7,17,7,7,7,17,7,7,7,17,7,79,80,7,111,112,7,
7,81,82,7,111,112,7,7,49,7,7,7,49,7,7,7,49,7,7,7,49,7,7,7,49,7,111,112,7,81,82,7,
7,81,82,7,81,82,7,7,17,7,7,7,17,7,7,7,17,7,7,7,17,7,7,7,17,7,81,82,7,81,82,7,
7,79,80,7,81,82,7,7,17,7,7,7,17,7,7,7,17,7,7,7,17,7,7,7,17,7,81,82,7,79,80,7,
7,81,82,7,79,80,7,7,17,7,7,7,17,7,7,7,17,7,7,7,17,7,7,7,17,7,79,80,7,81,82,7,
7,81,82,7,81,82,7,7,49,7,7,7,49,7,7,7,49,7,7,7,49,7,7,7,49,7,81,82,7,81,82,7,
7,81,82,7,81,82,7,7,17,7,7,7,17,7,7,7,17,7,7,7,17,7,7,7,17,7,81,82,7,81,82,7,
7,81,82,7,15,16,7,7,17,7,7,7,17,7,7,7,17,7,7,7,17,7,7,7,17,7,15,16,7,81,82,7,
7,79,80,7,47,48,7,7,17,7,7,7,17,7,7,7,17,7,7,7,17,7,7,7,17,7,47,48,7,79,80,7,
7,111,112,7,79,80,7,7,17,7,7,7,17,7,7,7,17,7,7,7,17,7,7,7,17,7,79,80,7,111,112,7,
7,81,82,7,111,112,7,7,49,7,7,7,49,7,7,7,49,7,7,7,49,7,7,7,49,7,111,112,7,81,82,7,
7,81,82,7,81,82,7,7,17,7,7,7,17,7,7,7,17,7,7,7,17,7,7,7,17,7,81,82,7,81,82,7,
7,79,80,7,81,82,7,7,17,7,7,7,17,7,7,7,17,7,7,7,17,7,7,7,17,7,81,82,7,79,80,7,
7,81,82,7,79,80,7,103,17,7,103,7,17,7,103,7,17,7,103,7,17,7,103,7,17,7,79,80,7,81,82,7,
7,81,82,7,81,82,7,7,49,7,7,7,49,7,7,7,49,7,7,7,49,7,7,7,49,7,81,82,7,81,82,7,
7,81,82,7,81,82,7,7,17,7,7,7,17,7,7,7,17,7,7,7,17,7,7,7,17,7,81,82,7,81,82,7,
7,81,82,7,81,82,7,7,17,7,7,7,17,7,7,7,17,7,7,7,17,7,7,7,17,7,81,82,7,81,82,7,
7,113,114,7,113,114,7,7,50,7,7,7,50,7,7,7,50,7,7,7,50,7,7,7,50,7,113,114,7,113,114,7,
18,19,18,19,18,19,18,19,18,19,18,19,18,19,18,19,18,19,18,19,18,19,18,19,18,19,18,19,18,19,18,19,
51,52,51,52,51,52,51,52,51,52,51,52,51,52,51,52,51,52,51,52,51,52,51,52,51,52,51,52,51,52,51,52
</data>
 </layer>
 <layer id="2" name="bg1" width="32" height="28">
  <data encoding="csv">
0,0,0,0,0,0,0,0,0,0,0,0,0,0,0,0,0,0,0,0,0,0,0,0,0,0,0,0,0,0,0,0,
0,0,0,0,0,0,0,0,0,0,0,0,0,0,0,0,0,0,0,0,0,0,0,0,0,0,0,0,0,0,0,0,
0,0,0,0,0,0,0,0,0,0,0,0,0,0,0,0,0,0,0,0,0,0,0,0,0,0,0,0,0,0,0,0,
0,0,0,0,0,0,0,0,0,0,0,0,0,0,0,0,0,0,0,0,0,0,0,0,0,0,0,0,0,0,0,0,
0,0,0,0,0,0,0,0,0,0,0,0,0,0,0,0,0,0,0,0,0,0,0,0,0,0,0,0,0,0,0,0,
0,0,0,0,0,0,0,0,0,0,0,0,0,0,0,0,0,0,0,0,0,0,0,0,0,0,0,0,0,0,0,0,
0,0,0,0,0,0,0,0,0,0,0,0,0,0,0,0,0,0,0,0,0,0,0,0,0,0,0,0,0,0,0,0,
0,0,0,0,0,0,0,0,0,0,0,0,0,0,0,0,0,0,0,0,0,0,0,0,0,0,0,0,0,0,0,0,
0,0,0,0,0,0,0,0,0,0,0,0,0,0,0,0,0,0,0,0,0,0,0,0,0,0,0,0,0,0,0,0,
0,0,0,0,0,0,0,0,0,0,0,0,0,0,0,0,0,0,0,0,0,0,0,0,0,0,0,0,0,0,0,0,
0,0,0,0,0,0,0,0,0,0,0,0,0,0,0,0,0,0,0,0,0,0,0,0,0,0,0,0,0,0,0,0,
0,0,0,0,0,0,0,0,0,0,0,0,0,0,0,0,0,0,0,0,0,0,0,0,0,0,0,0,0,0,0,0,
0,0,0,0,0,0,0,0,0,0,0,0,0,0,0,0,0,0,0,0,0,0,0,0,0,0,0,0,0,0,0,0,
0,0,0,0,0,0,0,0,0,0,0,0,0,0,0,0,0,0,0,0,0,0,0,0,0,0,0,0,0,0,0,0,
0,0,0,0,0,0,0,0,0,0,0,0,0,0,0,0,0,0,0,0,0,0,0,0,0,0,0,0,0,0,0,0,
0,0,0,0,0,0,0,0,0,0,0,0,0,0,0,0,0,0,0,0,0,0,0,0,0,0,0,0,0,0,0,0,
0,0,0,0,0,0,0,0,0,0,0,0,0,0,0,0,0,0,0,0,0,0,0,0,0,0,0,0,0,0,0,0,
0,0,0,0,0,0,0,0,0,0,0,0,0,0,0,0,0,0,0,0,0,0,0,0,0,0,0,0,0,0,0,0,
0,0,0,0,0,0,0,0,0,0,0,0,0,0,0,0,0,0,0,0,0,0,0,0,0,0,0,0,0,0,0,0,
0,0,0,0,0,0,0,0,0,0,0,0,0,0,0,0,0,0,0,0,0,0,0,0,0,0,0,0,0,0,0,0,
0,0,0,0,0,0,0,0,0,0,0,0,0,0,0,0,0,0,0,0,0,0,0,0,0,0,0,0,0,0,0,0,
0,0,0,0,0,0,0,0,0,0,0,0,0,0,0,0,0,0,0,0,0,0,0,0,0,0,0,0,0,0,0,0,
0,0,0,0,0,0,0,0,0,0,0,0,0,0,0,0,0,0,0,0,0,0,0,0,0,0,0,0,0,0,0,0,
0,0,0,0,0,0,0,0,0,0,0,0,0,0,0,0,0,0,0,0,0,0,0,0,0,0,0,0,0,0,0,0,
0,0,0,0,0,0,0,0,0,0,0,0,0,0,0,0,0,0,0,0,0,0,0,0,0,0,0,0,0,0,0,0,
0,0,0,0,0,0,0,0,0,0,0,0,0,0,0,0,0,0,0,0,0,0,0,0,0,0,0,0,0,0,0,0,
0,0,0,0,0,0,0,0,0,0,0,0,0,0,0,0,0,0,0,0,0,0,0,0,0,0,0,0,0,0,0,0,
0,0,0,0,0,0,0,0,0,0,0,0,0,0,0,0,0,0,0,0,0,0,0,0,0,0,0,0,0,0,0,0
</data>
 </layer>
 <objectgroup id="8" name="sprites">
  <object id="1" gid="2147484516" x="224" y="208" width="8" height="8"/>
  <object id="2" gid="2147484517" x="216" y="208" width="8" height="8"/>
  <object id="3" gid="2147484518" x="208" y="208" width="8" height="8"/>
  <object id="4" gid="2147484486" x="208" y="200" width="8" height="8"/>
  <object id="5" gid="2147484485" x="216" y="200" width="8" height="8"/>
  <object id="6" gid="2147484484" x="224" y="200" width="8" height="8"/>
  <object id="7" gid="2147484452" x="224" y="192" width="8" height="8"/>
  <object id="8" gid="2147484453" x="216" y="192" width="8" height="8"/>
  <object id="9" gid="2147484454" x="208" y="192" width="8" height="8"/>
  <object id="10" gid="2147484420" x="224" y="184" width="8" height="8"/>
  <object id="11" gid="2147484421" x="216" y="184" width="8" height="8"/>
  <object id="12" gid="2147484422" x="208" y="184" width="8" height="8"/>
  <object id="13" gid="488" x="8" y="208" width="8" height="8"/>
  <object id="14" gid="456" x="8" y="200" width="8" height="8"/>
  <object id="15" gid="2147484102" x="0" y="200" width="8" height="8"/>
  <object id="16" gid="2147484105" x="0" y="200" width="8" height="8"/>
  <object id="17" gid="456" x="8" y="200" width="8" height="8"/>
  <object id="18" gid="2147484103" x="16" y="200" width="8" height="8"/>
  <object id="19" gid="424" x="8" y="192" width="8" height="8"/>
  <object id="20" gid="425" x="16" y="192" width="8" height="8"/>
  <object id="21" gid="392" x="8" y="184" width="8" height="8"/>
  <object id="23" gid="393" x="16" y="184" width="8" height="8"/>
  <object id="24" gid="391" x="0" y="184" width="8" height="8"/>
  <object id="25" gid="457" x="16" y="200" width="8" height="8"/>
  <object id="37" gid="237" x="128" y="64" width="8" height="8"/>
  <object id="38" gid="238" x="136" y="64" width="8" height="8"/>
  <object id="39" gid="205" x="128" y="56" width="8" height="8"/>
  <object id="40" gid="206" x="136" y="56" width="8" height="8"/>
  <object id="46" gid="110" x="128" y="32" width="8" height="8"/>
  <object id="59" gid="14" x="128" y="8" width="8" height="8"/>
  <object id="62" gid="2147483885" x="104" y="120" width="8" height="8"/>
  <object id="63" gid="2147483886" x="96" y="120" width="8" height="8"/>
  <object id="64" gid="2147483853" x="104" y="112" width="8" height="8"/>
  <object id="65" gid="2147483854" x="96" y="112" width="8" height="8"/>
  <object id="71" gid="2147483758" x="104" y="88" width="8" height="8"/>
  <object id="84" gid="2147483662" x="104" y="64" width="8" height="8"/>
  <object id="103" gid="144" x="24" y="136" width="8" height="8"/>
  <object id="105" gid="176" x="24" y="144" width="8" height="8"/>
  <object id="136" gid="2147483942" x="16" y="184" width="8" height="8"/>
  <object id="228" gid="502" x="16" y="56" width="8" height="8"/>
  <object id="239" gid="152" x="-16" y="304" width="8" height="8"/>
  <object id="240" gid="1761" x="32" y="208" width="8" height="8"/>
  <object id="241" gid="1762" x="40" y="208" width="8" height="8"/>
  <object id="242" gid="1763" x="48" y="208" width="8" height="8"/>
  <object id="243" gid="1764" x="56" y="208" width="8" height="8"/>
  <object id="244" gid="1732" x="56" y="200" width="8" height="8"/>
  <object id="245" gid="1731" x="48" y="200" width="8" height="8"/>
  <object id="246" gid="1730" x="40" y="200" width="8" height="8"/>
  <object id="247" gid="1729" x="32" y="200" width="8" height="8"/>
  <object id="248" gid="1697" x="32" y="192" width="8" height="8"/>
  <object id="249" gid="1698" x="40" y="192" width="8" height="8"/>
  <object id="250" gid="1699" x="48" y="192" width="8" height="8"/>
  <object id="251" gid="1700" x="56" y="192" width="8" height="8"/>
  <object id="252" gid="1665" x="32" y="184" width="8" height="8"/>
  <object id="253" gid="1666" x="40" y="184" width="8" height="8"/>
  <object id="254" gid="1667" x="48" y="184" width="8" height="8"/>
  <object id="255" gid="1668" x="56" y="184" width="8" height="8"/>
  <object id="256" gid="1669" x="64" y="184" width="8" height="8"/>
  <object id="257" gid="1670" x="72" y="184" width="8" height="8"/>
  <object id="258" gid="1634" x="40" y="176" width="8" height="8"/>
  <object id="259" gid="1635" x="48" y="176" width="8" height="8"/>
  <object id="260" gid="1602" x="40" y="168" width="8" height="8"/>
  <object id="261" gid="1603" x="48" y="168" width="8" height="8"/>
  <object id="262" gid="1702" x="72" y="192" width="8" height="8"/>
  <object id="264" gid="966" x="192" y="192" width="8" height="8"/>
  <object id="265" gid="967" x="200" y="192" width="8" height="8"/>
  <object id="266" gid="935" x="200" y="184" width="8" height="8"/>
  <object id="267" gid="934" x="192" y="184" width="8" height="8"/>
  <object id="268" gid="965" x="184" y="192" width="8" height="8"/>
  <object id="269" gid="933" x="184" y="184" width="8" height="8"/>
  <object id="270" gid="901" x="184" y="176" width="8" height="8"/>
  <object id="271" gid="902" x="192" y="176" width="8" height="8"/>
  <object id="272" gid="903" x="200" y="176" width="8" height="8"/>
  <object id="273" gid="997" x="80" y="184" width="8" height="8"/>
  <object id="274" gid="997" x="88" y="184" width="8" height="8"/>
  <object id="275" gid="997" x="96" y="184" width="8" height="8"/>
  <object id="276" gid="997" x="104" y="184" width="8" height="8"/>
  <object id="277" gid="997" x="112" y="184" width="8" height="8"/>
  <object id="278" gid="997" x="120" y="184" width="8" height="8"/>
  <object id="279" gid="997" x="128" y="184" width="8" height="8"/>
  <object id="280" gid="997" x="136" y="184" width="8" height="8"/>
  <object id="281" gid="997" x="144" y="184" width="8" height="8"/>
  <object id="282" gid="997" x="152" y="184" width="8" height="8"/>
  <object id="283" gid="997" x="160" y="184" width="8" height="8"/>
  <object id="284" gid="997" x="168" y="184" width="8" height="8"/>
  <object id="285" gid="997" x="176" y="184" width="8" height="8"/>
 </objectgroup>
</map>
